; generated by PrusaSlicer 2.7.4+win64 on 2025-04-04 at 18:57:17 UTC

; 

; external perimeters extrusion width = 0.42mm
; perimeters extrusion width = 0.44mm
; infill extrusion width = 0.44mm
; solid infill extrusion width = 0.44mm
; top infill extrusion width = 0.40mm
; support material extrusion width = 0.36mm
; first layer extrusion width = 0.42mm

M104 S215 ; set temperature
;TYPE:Custom
START_PRINT
M109 S215 ; set temperature and wait for it to be reached
G21 ; set units to millimeters
G90 ; use absolute coordinates
M83 ; use relative distances for extrusion
; Filament gcode
M107
;LAYER_CHANGE
;Z:0.3
;HEIGHT:0.3
G1 E-.6 F3600
G1 Z.3 F9000
G1 X100.288 Y76.817
G1 Z.3
G1 E.6 F2400
M204 S500
;TYPE:Skirt/Brim
;WIDTH:0.42
G1 F1200
G1 X103.217 Y73.889 E.1837
G1 X104.529 Y73.345 E.063
G1 X115.471 Y73.345 E.48533
G1 X116.783 Y73.889 E.063
G1 X119.712 Y76.817 E.1837
G1 X120.256 Y78.13 E.06304
G1 X120.256 Y141.87 E2.82718
G1 X119.712 Y143.183 E.06304
G1 X116.783 Y146.111 E.1837
G1 X115.471 Y146.655 E.063
G1 X104.529 Y146.655 E.48533
G1 X103.217 Y146.111 E.063
G1 X100.288 Y143.183 E.1837
G1 X99.744 Y141.87 E.06304
G1 X99.744 Y78.13 E2.82718
G1 X100.265 Y76.873 E.06035
G1 E-.42 F3600
;WIPE_START
G1 F7200
G1 X100.288 Y76.817 E-.02876
G1 X100.513 Y76.592 E-.15124
;WIPE_END
G1 X105.667 Y124.634 F9000
G1 E.6 F2400
G1 F1200
G1 X114.31 Y124.629 E.38336
G1 X115.067 Y124.836 E.03481
G1 X115.805 Y125.175 E.03602
G1 X117.052 Y126.227 E.07236
G1 X117.817 Y127.421 E.0629
G1 X118.146 Y128.49 E.04961
G1 X118.201 Y140.326 E.52499
G1 X117.603 Y142.204 E.08742
G1 X117.117 Y142.852 E.03593
G1 X115.94 Y143.914 E.07032
G1 X115.067 Y144.337 E.04303
G1 X114.084 Y144.573 E.04484
G1 X106.071 Y144.6 E.35542
G1 X104.195 Y144.002 E.08733
G1 X103.546 Y143.516 E.03596
G1 X102.48 Y142.33 E.07073
G1 X102.027 Y141.365 E.04728
G1 X101.81 Y140.347 E.04617
G1 X101.799 Y128.844 E.51021
G1 X102.396 Y126.971 E.08719
G1 X102.873 Y126.332 E.03537
G1 X103.935 Y125.345 E.06431
G1 X104.778 Y124.898 E.04232
G1 X105.609 Y124.651 E.03845
G1 X105.609 Y124.651 F9000
G1 X105.71 Y124.992
G1 F1200
G1 X105.743 Y124.982 E.00153
G1 X114.239 Y124.978 E.37684
G1 X114.958 Y125.175 E.03307
G1 X115.633 Y125.488 E.033
G1 X116.801 Y126.48 E.06797
G1 X117.503 Y127.59 E.05825
G1 X117.798 Y128.567 E.04527
G1 X117.845 Y140.3 E.52042
G1 X117.3 Y142.016 E.07986
G1 X116.864 Y142.602 E.0324
G1 X115.762 Y143.605 E.06609
G1 X114.93 Y144.008 E.041
G1 X114.022 Y144.223 E.04139
G1 X106.098 Y144.245 E.35147
G1 X104.383 Y143.699 E.07983
G1 X103.797 Y143.263 E.0324
G1 X102.79 Y142.154 E.06644
G1 X102.371 Y141.271 E.04335
G1 X102.162 Y140.291 E.04445
G1 X102.155 Y128.871 E.50653
G1 X102.699 Y127.158 E.07972
G1 X103.128 Y126.58 E.03193
G1 X104.124 Y125.647 E.06053
G1 X104.897 Y125.233 E.03889
G1 X105.653 Y125.009 E.03497
G1 X105.653 Y125.009 F9000
G1 X105.753 Y125.35
G1 F1200
G1 X105.818 Y125.33 E.00302
G1 X114.169 Y125.327 E.37041
G1 X114.823 Y125.505 E.03006
G1 X115.462 Y125.8 E.03122
G1 X116.548 Y126.731 E.06345
G1 X117.189 Y127.757 E.05366
G1 X117.45 Y128.643 E.04097
G1 X117.49 Y140.273 E.51585
G1 X116.996 Y141.829 E.07241
G1 X116.61 Y142.352 E.02883
G1 X115.583 Y143.296 E.06187
G1 X114.793 Y143.679 E.03894
G1 X113.962 Y143.872 E.03784
G1 X106.125 Y143.889 E.34761
G1 X104.57 Y143.396 E.07236
G1 X104.047 Y143.01 E.02883
G1 X103.099 Y141.977 E.06219
G1 X102.701 Y141.138 E.04119
G1 X102.514 Y140.237 E.04082
G1 X102.51 Y128.898 E.50294
G1 X103.003 Y127.345 E.07227
G1 X103.384 Y126.827 E.02852
G1 X104.313 Y125.95 E.05667
G1 X105.048 Y125.556 E.03699
G1 X105.695 Y125.366 E.02991
G1 X105.695 Y125.366 F9000
G1 X105.793 Y125.708
G1 F1200
G1 X105.892 Y125.679 E.00458
G1 X114.099 Y125.677 E.36402
G1 X114.715 Y125.844 E.02831
G1 X115.288 Y126.111 E.02804
G1 X116.294 Y126.982 E.05902
G1 X116.872 Y127.922 E.04894
G1 X117.101 Y128.717 E.0367
G1 X117.134 Y140.247 E.51141
G1 X116.692 Y141.643 E.06495
G1 X116.355 Y142.104 E.02533
G1 X115.402 Y142.989 E.05769
G1 X114.693 Y143.337 E.03503
G1 X113.902 Y143.521 E.03602
G1 X106.151 Y143.533 E.34379
G1 X104.756 Y143.091 E.06491
G1 X104.296 Y142.755 E.02527
G1 X103.409 Y141.799 E.05784
G1 X103.032 Y141.005 E.03899
G1 X102.866 Y140.184 E.03715
G1 X102.866 Y128.926 E.49935
G1 X103.308 Y127.531 E.06491
G1 X103.641 Y127.074 E.02508
G1 X104.539 Y126.225 E.05481
G1 X105.197 Y125.879 E.03297
G1 X105.736 Y125.724 E.02488
G1 X105.736 Y125.724 F9000
G1 X105.832 Y126.066
G1 F1200
G1 X105.965 Y126.028 E.00614
G1 X114.03 Y126.026 E.35772
G1 X114.579 Y126.173 E.02521
G1 X115.115 Y126.423 E.02623
G1 X116.039 Y127.231 E.05444
G1 X116.555 Y128.084 E.04422
G1 X116.752 Y128.789 E.03247
G1 X116.778 Y140.22 E.50702
G1 X116.387 Y141.458 E.05758
G1 X116.099 Y141.857 E.02183
G1 X115.221 Y142.682 E.05344
G1 X114.555 Y143.009 E.03291
G1 X113.843 Y143.169 E.03237
G1 X106.178 Y143.178 E.33998
G1 X104.941 Y142.786 E.05756
G1 X104.543 Y142.498 E.02179
G1 X103.717 Y141.619 E.0535
G1 X103.376 Y140.911 E.03486
G1 X103.222 Y140.166 E.03374
G1 X103.222 Y128.953 E.49735
G1 X103.613 Y127.716 E.05754
G1 X103.899 Y127.319 E.0217
G1 X104.727 Y126.528 E.05079
G1 X105.345 Y126.203 E.03097
G1 X105.774 Y126.082 E.01977
G1 X105.774 Y126.082 F9000
G1 X105.868 Y126.423
G1 F1200
G1 X106.036 Y126.377 E.00773
G1 X113.961 Y126.376 E.35151
G1 X114.939 Y126.733 E.04618
G1 X115.782 Y127.478 E.0499
G1 X116.236 Y128.243 E.03946
G1 X116.403 Y128.858 E.02827
G1 X116.423 Y140.193 E.50276
G1 X116.081 Y141.275 E.05033
G1 X115.841 Y141.612 E.01835
G1 X115.038 Y142.376 E.04916
G1 X114.456 Y142.667 E.02886
G1 X113.784 Y142.818 E.03055
G1 X106.206 Y142.822 E.33612
G1 X105.124 Y142.48 E.05033
G1 X104.788 Y142.24 E.01831
G1 X104.024 Y141.437 E.04916
G1 X103.719 Y140.815 E.03073
G1 X103.577 Y140.147 E.03029
G1 X103.577 Y128.98 E.49531
G1 X103.919 Y127.899 E.05029
G1 X104.158 Y127.563 E.01829
G1 X104.915 Y126.831 E.04671
G1 X105.493 Y126.527 E.02897
G1 X105.811 Y126.439 E.01463
G1 X105.811 Y126.439 F9000
G1 X105.902 Y126.781
G1 F1200
G1 X106.105 Y126.727 E.00932
G1 X113.894 Y126.726 E.34548
G1 X114.335 Y126.841 E.02021
G1 X114.764 Y127.043 E.02103
G1 X115.523 Y127.723 E.0452
G1 X115.916 Y128.399 E.03468
G1 X116.053 Y128.925 E.02411
G1 X116.067 Y140.166 E.49859
G1 X115.774 Y141.093 E.04312
G1 X114.854 Y142.07 E.05952
G1 X114.317 Y142.338 E.02662
G1 X113.728 Y142.466 E.02673
G1 X106.233 Y142.466 E.33244
G1 X105.306 Y142.174 E.04311
G1 X104.329 Y141.253 E.05955
G1 X104.061 Y140.717 E.02658
G1 X103.933 Y140.127 E.02678
G1 X103.933 Y129.007 E.49323
G1 X104.226 Y128.08 E.04312
G1 X105.104 Y127.133 E.05728
G1 X105.641 Y126.851 E.0269
G1 X105.844 Y126.797 E.00932
G1 X105.844 Y126.797 F9000
G1 X105.984 Y127.151
G1 F1200
G1 X106.172 Y127.077 E.00896
G1 X113.828 Y127.076 E.33958
G1 X114.587 Y127.353 E.03584
G1 X115.262 Y127.966 E.04044
G1 X115.594 Y128.552 E.02987
G1 X115.703 Y128.989 E.01998
G1 X115.712 Y140.139 E.49456
G1 X115.466 Y140.914 E.03607
G1 X114.667 Y141.767 E.05184
G1 X114.216 Y141.997 E.02246
G1 X113.708 Y142.111 E.02309
G1 X106.26 Y142.111 E.33035
G1 X105.486 Y141.866 E.03601
G1 X104.633 Y141.066 E.05187
G1 X104.403 Y140.616 E.02242
G1 X104.288 Y140.107 E.02315
G1 X104.288 Y129.035 E.4911
G1 X104.534 Y128.26 E.03607
G1 X105.333 Y127.407 E.05184
G1 X105.928 Y127.173 E.02836
G1 X105.928 Y127.173 F9000
G1 X106.057 Y127.498
G1 F1200
G1 X106.235 Y127.427 E.0085
G1 X113.765 Y127.427 E.33399
G1 X114.064 Y127.5 E.01365
G1 X114.41 Y127.663 E.01696
G1 X114.998 Y128.206 E.0355
G1 X115.27 Y128.7 E.02501
G1 X115.352 Y129.049 E.0159
G1 X115.356 Y140.112 E.4907
G1 X115.157 Y140.737 E.02909
G1 X114.48 Y141.463 E.04403
G1 X114.075 Y141.669 E.02015
G1 X113.688 Y141.755 E.01758
G1 X106.288 Y141.755 E.32823
G1 X105.663 Y141.557 E.02908
G1 X104.936 Y140.879 E.04409
G1 X104.73 Y140.474 E.02015
G1 X104.644 Y140.088 E.01754
G1 X104.644 Y129.062 E.48906
G1 X104.843 Y128.437 E.02909
G1 X105.52 Y127.711 E.04403
G1 X106.001 Y127.52 E.02296
G1 X106.001 Y127.52 F9000
G1 X106.131 Y127.844
G1 F1200
G1 X106.295 Y127.778 E.00784
G1 X113.706 Y127.777 E.32871
G1 X114.232 Y127.972 E.02488
G1 X114.732 Y128.443 E.03047
G1 X115 Y129.105 E.03168
G1 X115 Y140.084 E.48697
G1 X114.846 Y140.563 E.02232
G1 X114.292 Y141.16 E.03612
G1 X113.67 Y141.4 E.02957
G1 X106.316 Y141.4 E.32619
G1 X105.836 Y141.245 E.02237
G1 X105.24 Y140.691 E.03609
G1 X105 Y140.069 E.02957
G1 X105 Y129.09 E.48697
G1 X105.154 Y128.61 E.02236
G1 X105.708 Y128.014 E.03609
G1 X106.076 Y127.866 E.01759
G1 X106.076 Y127.866 F9000
G1 X106.209 Y128.187
G1 F1200
G1 X106.348 Y128.13 E.00666
G1 X113.685 Y128.133 E.32543
G1 X114.053 Y128.281 E.01759
G1 X114.461 Y128.676 E.02519
G1 X114.645 Y129.122 E.0214
G1 X114.645 Y140.055 E.48493
G1 X114.532 Y140.396 E.01593
G1 X114.102 Y140.857 E.02796
G1 X113.652 Y141.044 E.02161
G1 X106.345 Y141.044 E.3241
G1 X106.003 Y140.931 E.01598
G1 X105.542 Y140.502 E.02793
G1 X105.355 Y140.051 E.02166
G1 X105.355 Y129.119 E.48489
G1 X105.468 Y128.778 E.01593
G1 X105.898 Y128.317 E.02796
G1 X106.154 Y128.21 E.01231
G1 X106.154 Y128.21 F9000
G1 X106.288 Y128.519
G1 F1200
G1 X106.364 Y128.485 E.00369
G1 X113.636 Y128.485 E.32255
G1 X113.872 Y128.589 E.01144
G1 X114.186 Y128.903 E.0197
G1 X114.289 Y129.139 E.01142
G1 X114.289 Y140.022 E.48271
G1 X114.218 Y140.221 E.00937
G1 X113.87 Y140.586 E.02237
G1 X113.636 Y140.688 E.01132
G1 X106.378 Y140.688 E.32193
G1 X106.178 Y140.617 E.00941
G1 X105.813 Y140.269 E.02237
G1 X105.711 Y140.035 E.01132
G1 X105.711 Y129.152 E.48271
G1 X105.782 Y128.953 E.00937
G1 X106.13 Y128.588 E.02237
G1 X106.233 Y128.543 E.00499
G1 X106.233 Y128.543 F9000
G1 X106.417 Y128.841
G1 F1200
G1 X113.648 Y128.868 E.32073
G1 X113.933 Y129.192 E.01914
G1 X113.906 Y140.047 E.48147
G1 X113.583 Y140.333 E.01914
G1 X106.352 Y140.306 E.32073
G1 X106.067 Y139.982 E.01914
G1 X106.094 Y129.126 E.48152
G1 X106.372 Y128.881 E.01644
G1 X106.372 Y128.881 F9000
G1 X106.526 Y129.197
G1 F1200
G1 X113.474 Y129.197 E.30818
G1 X113.578 Y129.301 E.00652
G1 X113.578 Y139.873 E.46892
G1 X113.474 Y139.977 E.00652
G1 X106.526 Y139.977 E.30818
G1 X106.422 Y139.873 E.00652
G1 X106.422 Y129.301 E.46892
G1 X106.484 Y129.239 E.00389
G1 E-.42 F3600
;WIPE_START
G1 F7200
G1 X106.526 Y129.197 E-.02821
G1 X106.846 Y129.197 E-.15179
;WIPE_END
G1 X106.37 Y95.426 F9000
G1 E.6 F2400
G1 F1200
G1 X106.071 Y95.427 E.01326
G1 X104.195 Y94.829 E.08733
G1 X103.546 Y94.342 E.03599
G1 X102.48 Y93.157 E.0707
G1 X102.027 Y92.192 E.04728
G1 X101.81 Y91.173 E.04621
G1 X101.799 Y79.67 E.51021
G1 X102.396 Y77.797 E.08719
G1 X102.873 Y77.159 E.03533
G1 X103.935 Y76.172 E.06431
G1 X104.778 Y75.724 E.04234
G1 X105.667 Y75.46 E.04113
G1 X114.31 Y75.455 E.38336
G1 X115.067 Y75.663 E.03482
G1 X115.805 Y76.002 E.03602
G1 X117.052 Y77.053 E.07234
G1 X117.817 Y78.248 E.06293
G1 X118.146 Y79.316 E.04957
G1 X118.201 Y91.152 E.52499
G1 X117.603 Y93.031 E.08746
G1 X117.117 Y93.679 E.03593
G1 X115.94 Y94.74 E.07029
G1 X115.067 Y95.163 E.04303
G1 X114.084 Y95.4 E.04485
G1 X106.43 Y95.425 E.33949
G1 X106.43 Y95.425 F9000
G1 X106.429 Y95.07
G1 F1200
G1 X106.098 Y95.071 E.01468
G1 X104.383 Y94.526 E.07982
G1 X103.797 Y94.09 E.0324
G1 X102.79 Y92.98 E.06648
G1 X102.371 Y92.097 E.04335
G1 X102.162 Y91.117 E.04445
G1 X102.155 Y79.697 E.50653
G1 X102.699 Y77.985 E.07968
G1 X103.128 Y77.407 E.03193
G1 X104.124 Y76.474 E.06053
G1 X104.897 Y76.06 E.03889
G1 X105.743 Y75.808 E.03915
G1 X114.239 Y75.804 E.37684
G1 X114.958 Y76.002 E.03308
G1 X115.633 Y76.314 E.03298
G1 X116.801 Y77.306 E.06797
G1 X117.503 Y78.417 E.05829
G1 X117.798 Y79.394 E.04527
G1 X117.845 Y91.126 E.52037
G1 X117.3 Y92.842 E.07986
G1 X116.864 Y93.428 E.0324
G1 X115.762 Y94.431 E.06609
G1 X114.93 Y94.834 E.041
G1 X114.022 Y95.049 E.04139
G1 X106.489 Y95.07 E.33413
G1 X106.489 Y95.07 F9000
G1 X106.488 Y94.714
G1 F1200
G1 X106.125 Y94.715 E.0161
G1 X104.57 Y94.222 E.07236
G1 X104.047 Y93.836 E.02883
G1 X103.099 Y92.803 E.06219
G1 X102.701 Y91.964 E.04119
G1 X102.514 Y91.063 E.04082
G1 X102.51 Y79.725 E.50289
G1 X103.003 Y78.172 E.07227
G1 X103.384 Y77.654 E.02852
G1 X104.313 Y76.776 E.0567
G1 X105.048 Y76.382 E.03699
G1 X105.818 Y76.157 E.03558
G1 X114.169 Y76.154 E.37041
G1 X114.823 Y76.331 E.03005
G1 X115.462 Y76.626 E.03122
G1 X116.548 Y77.558 E.06348
G1 X117.189 Y78.583 E.05362
G1 X117.45 Y79.469 E.04097
G1 X117.49 Y91.1 E.51589
G1 X116.996 Y92.655 E.07237
G1 X116.61 Y93.178 E.02883
G1 X115.583 Y94.123 E.0619
G1 X114.793 Y94.505 E.03892
G1 X113.962 Y94.698 E.03784
G1 X106.548 Y94.714 E.32885
G1 X106.548 Y94.714 F9000
G1 X106.548 Y94.359
G1 F1200
G1 X106.151 Y94.36 E.01761
G1 X104.756 Y93.918 E.06491
G1 X104.296 Y93.581 E.02529
G1 X103.409 Y92.625 E.05784
G1 X103.032 Y91.832 E.03895
G1 X102.866 Y91.011 E.03715
G1 X102.866 Y79.752 E.49939
G1 X103.308 Y78.357 E.06491
G1 X103.641 Y77.901 E.02504
G1 X104.539 Y77.051 E.05484
G1 X105.197 Y76.706 E.03295
G1 X105.892 Y76.505 E.03209
G1 X114.099 Y76.503 E.36402
G1 X114.715 Y76.67 E.02831
G1 X115.288 Y76.938 E.02806
G1 X116.294 Y77.808 E.05899
G1 X116.872 Y78.748 E.04894
G1 X117.101 Y79.543 E.0367
G1 X117.134 Y91.073 E.51141
G1 X116.692 Y92.469 E.06495
G1 X116.355 Y92.93 E.02533
G1 X115.402 Y93.816 E.05772
G1 X114.693 Y94.164 E.03503
G1 X113.902 Y94.347 E.03601
G1 X106.608 Y94.359 E.32352
G1 X106.608 Y94.359 F9000
G1 X106.607 Y94.004
G1 F1200
G1 X106.178 Y94.004 E.01903
G1 X104.941 Y93.613 E.05754
G1 X104.543 Y93.325 E.02179
G1 X103.717 Y92.446 E.0535
G1 X103.376 Y91.737 E.0349
G1 X103.222 Y90.992 E.03374
G1 X103.222 Y79.779 E.49735
G1 X103.613 Y78.542 E.05754
G1 X103.899 Y78.146 E.02167
G1 X104.727 Y77.354 E.05082
G1 X105.345 Y77.029 E.03097
G1 X105.965 Y76.854 E.02857
G1 X114.03 Y76.853 E.35772
G1 X114.579 Y76.999 E.0252
G1 X115.115 Y77.249 E.02623
G1 X116.039 Y78.057 E.05444
G1 X116.555 Y78.91 E.04422
G1 X116.752 Y79.615 E.03247
G1 X116.778 Y91.046 E.50702
G1 X116.387 Y92.284 E.05758
G1 X116.099 Y92.683 E.02183
G1 X115.221 Y93.508 E.05344
G1 X114.555 Y93.835 E.03291
G1 X113.843 Y93.996 E.03238
G1 X106.667 Y94.003 E.31829
G1 X106.667 Y94.003 F9000
G1 X106.667 Y93.648
G1 F1200
G1 X106.206 Y93.648 E.02045
G1 X105.124 Y93.307 E.05032
G1 X104.788 Y93.066 E.01834
G1 X104.024 Y92.264 E.04913
G1 X103.719 Y91.641 E.03077
G1 X103.577 Y90.973 E.03029
G1 X103.577 Y79.806 E.49531
G1 X103.919 Y78.725 E.05029
G1 X104.158 Y78.389 E.01829
G1 X104.915 Y77.657 E.04671
G1 X105.493 Y77.353 E.02897
G1 X106.036 Y77.203 E.02499
G1 X113.961 Y77.202 E.35151
G1 X114.939 Y77.559 E.04618
G1 X115.782 Y78.304 E.0499
G1 X116.236 Y79.07 E.0395
G1 X116.403 Y79.685 E.02827
G1 X116.423 Y91.02 E.50276
G1 X116.081 Y92.101 E.05029
G1 X115.841 Y92.438 E.01835
G1 X115.038 Y93.203 E.04919
G1 X114.456 Y93.493 E.02884
G1 X113.784 Y93.644 E.03055
G1 X106.727 Y93.648 E.31301
G1 X106.727 Y93.648 F9000
G1 X106.727 Y93.293
G1 F1200
G1 X106.233 Y93.293 E.02191
G1 X105.306 Y93 E.04312
G1 X104.329 Y92.08 E.05952
G1 X104.061 Y91.543 E.02662
G1 X103.933 Y90.954 E.02673
G1 X103.933 Y79.834 E.49323
G1 X104.226 Y78.907 E.04312
G1 X105.104 Y77.96 E.05728
G1 X105.641 Y77.677 E.02692
G1 X106.105 Y77.553 E.0213
G1 X113.894 Y77.552 E.34548
G1 X114.335 Y77.667 E.02021
G1 X114.764 Y77.87 E.02105
G1 X115.523 Y78.549 E.04517
G1 X115.916 Y79.226 E.03472
G1 X116.053 Y79.752 E.02411
G1 X116.067 Y90.993 E.49859
G1 X115.774 Y91.92 E.04312
G1 X114.854 Y92.897 E.05952
G1 X114.317 Y93.165 E.02662
G1 X113.728 Y93.293 E.02673
G1 X106.787 Y93.293 E.30787
G1 X106.787 Y93.293 F9000
G1 X106.787 Y92.937
G1 F1200
G1 X106.26 Y92.937 E.02337
G1 X105.486 Y92.692 E.03601
G1 X104.633 Y91.893 E.05184
G1 X104.403 Y91.442 E.02246
G1 X104.288 Y90.933 E.02315
G1 X104.288 Y79.861 E.4911
G1 X104.534 Y79.086 E.03607
G1 X105.333 Y78.233 E.05184
G1 X106.172 Y77.903 E.03999
G1 X113.828 Y77.902 E.33958
G1 X114.587 Y78.18 E.03585
G1 X115.262 Y78.792 E.04041
G1 X115.594 Y79.378 E.02987
G1 X115.703 Y79.815 E.01998
G1 X115.712 Y90.965 E.49456
G1 X115.466 Y91.74 E.03607
G1 X114.667 Y92.593 E.05184
G1 X114.216 Y92.823 E.02246
G1 X113.708 Y92.937 E.02309
G1 X106.847 Y92.937 E.30432
G1 X106.847 Y92.937 F9000
G1 X106.847 Y92.582
G1 F1200
G1 X106.288 Y92.582 E.02479
G1 X105.663 Y92.383 E.02909
G1 X104.936 Y91.706 E.04406
