; generated by PrusaSlicer 2.7.4+win64 on 2025-03-30 at 08:10:00 UTC

; 

; external perimeters extrusion width = 0.42mm
; perimeters extrusion width = 0.44mm
; infill extrusion width = 0.44mm
; solid infill extrusion width = 0.44mm
; top infill extrusion width = 0.40mm
; support material extrusion width = 0.36mm
; first layer extrusion width = 0.42mm

M104 S215 ; set temperature
;TYPE:Custom
START_PRINT
M109 S215 ; set temperature and wait for it to be reached
G21 ; set units to millimeters
G90 ; use absolute coordinates
M83 ; use relative distances for extrusion
; Filament gcode
M107
;LAYER_CHANGE
;Z:0.3
;HEIGHT:0.3
G1 E-.6 F3600
G1 Z.3 F9000
G1 X79.359 Y79.359
G1 Z.3
G1 E.6 F2400
M204 S500
;TYPE:Skirt/Brim
;WIDTH:0.42
G1 F1200
G1 X80.176 Y78.542 E.05125
G1 X81.489 Y77.999 E.06302
G1 X138.511 Y77.999 E2.5292
G1 X139.824 Y78.542 E.06302
G1 X141.458 Y80.176 E.1025
G1 X142.001 Y81.489 E.06302
G1 X142.001 Y138.511 E2.5292
G1 X141.458 Y139.824 E.06302
G1 X139.824 Y141.458 E.1025
G1 X138.511 Y142.001 E.06302
G1 X81.489 Y142.001 E2.5292
G1 X80.176 Y141.458 E.06302
G1 X78.542 Y139.824 E.1025
G1 X77.999 Y138.511 E.06302
G1 X77.999 Y81.489 E2.5292
G1 X78.542 Y80.176 E.06302
G1 X79.317 Y79.402 E.04858
G1 E-.42 F3600
;WIPE_START
G1 F7200
G1 X79.359 Y79.359 E-.02855
G1 X79.585 Y79.134 E-.15145
;WIPE_END
G1 X140.146 Y81.489 F9000
G1 E.6 F2400
;TYPE:Support material
G1 F1200
G1 X140.146 Y138.511 E2.5292
G1 X138.511 Y140.146 E.10256
G1 X81.489 Y140.146 E2.5292
G1 X79.854 Y138.511 E.10256
G1 X79.854 Y81.489 E2.5292
G1 X81.489 Y79.854 E.10256
G1 X138.511 Y79.854 E2.5292
G1 X140.108 Y81.451 E.10018
G1 E-.42 F3600
;WIPE_START
G1 F7200
G1 X139.84 Y81.183 E-.18
;WIPE_END
G1 X80.174 Y138.176 F9000
G1 E.6 F2400
G1 F1200
G1 X80.174 Y138.379 E.009
G1 X80.365 Y138.57 E.01198
G1 X80.365 Y81.43 E2.53443
G1 X80.76 Y81.035 E.02478
G1 X80.76 Y138.965 E2.56947
G1 X81.155 Y139.36 E.02478
G1 X81.155 Y80.64 E2.60451
G1 X81.55 Y80.245 E.02478
G1 X81.55 Y139.755 E2.63956
G1 X81.621 Y139.826 E.00445
G1 X81.946 Y139.826 E.01442
G1 X81.946 Y80.174 E2.64585
G1 X82.341 Y80.174 E.01752
G1 X82.341 Y139.826 E2.64585
G1 X82.736 Y139.826 E.01752
G1 X82.736 Y80.174 E2.64585
G1 X83.131 Y80.174 E.01752
G1 X83.131 Y139.826 E2.64585
G1 X83.526 Y139.826 E.01752
G1 X83.526 Y80.174 E2.64585
G1 X83.921 Y80.174 E.01752
G1 X83.921 Y139.826 E2.64585
G1 X84.316 Y139.826 E.01752
G1 X84.316 Y80.174 E2.64585
G1 X84.712 Y80.174 E.01756
G1 X84.712 Y139.826 E2.64585
G1 X85.107 Y139.826 E.01752
G1 X85.107 Y80.174 E2.64585
G1 X85.502 Y80.174 E.01752
G1 X85.502 Y139.826 E2.64585
G1 X85.897 Y139.826 E.01752
G1 X85.897 Y80.174 E2.64585
G1 X86.292 Y80.174 E.01752
G1 X86.292 Y139.826 E2.64585
G1 X86.687 Y139.826 E.01752
G1 X86.687 Y80.174 E2.64585
G1 X87.082 Y80.174 E.01752
G1 X87.082 Y139.826 E2.64585
G1 X87.477 Y139.826 E.01752
G1 X87.477 Y80.174 E2.64585
G1 X87.873 Y80.174 E.01756
G1 X87.873 Y139.826 E2.64585
G1 X88.268 Y139.826 E.01752
G1 X88.268 Y80.174 E2.64585
G1 X88.663 Y80.174 E.01752
G1 X88.663 Y139.826 E2.64585
G1 X89.058 Y139.826 E.01752
G1 X89.058 Y80.174 E2.64585
G1 X89.453 Y80.174 E.01752
G1 X89.453 Y139.826 E2.64585
G1 X89.848 Y139.826 E.01752
G1 X89.848 Y80.174 E2.64585
G1 X90.243 Y80.174 E.01752
G1 X90.243 Y139.826 E2.64585
G1 X90.639 Y139.826 E.01756
G1 X90.639 Y80.174 E2.64585
G1 X91.034 Y80.174 E.01752
G1 X91.034 Y139.826 E2.64585
G1 X91.429 Y139.826 E.01752
G1 X91.429 Y80.174 E2.64585
G1 X91.824 Y80.174 E.01752
G1 X91.824 Y139.826 E2.64585
G1 X92.219 Y139.826 E.01752
G1 X92.219 Y80.174 E2.64585
G1 X92.614 Y80.174 E.01752
G1 X92.614 Y139.826 E2.64585
G1 X93.009 Y139.826 E.01752
G1 X93.009 Y80.174 E2.64585
G1 X93.404 Y80.174 E.01752
G1 X93.404 Y139.826 E2.64585
G1 X93.8 Y139.826 E.01756
G1 X93.8 Y80.174 E2.64585
G1 X94.195 Y80.174 E.01752
G1 X94.195 Y139.826 E2.64585
G1 X94.59 Y139.826 E.01752
G1 X94.59 Y80.174 E2.64585
G1 X94.985 Y80.174 E.01752
G1 X94.985 Y139.826 E2.64585
G1 X95.38 Y139.826 E.01752
G1 X95.38 Y80.174 E2.64585
G1 X95.775 Y80.174 E.01752
G1 X95.775 Y139.826 E2.64585
G1 X96.17 Y139.826 E.01752
G1 X96.17 Y80.174 E2.64585
G1 X96.566 Y80.174 E.01756
G1 X96.566 Y139.826 E2.64585
G1 X96.961 Y139.826 E.01752
G1 X96.961 Y80.174 E2.64585
G1 X97.356 Y80.174 E.01752
G1 X97.356 Y139.826 E2.64585
G1 X97.751 Y139.826 E.01752
G1 X97.751 Y80.174 E2.64585
G1 X98.146 Y80.174 E.01752
G1 X98.146 Y139.826 E2.64585
G1 X98.541 Y139.826 E.01752
G1 X98.541 Y80.174 E2.64585
G1 X98.936 Y80.174 E.01752
G1 X98.936 Y139.826 E2.64585
G1 X99.331 Y139.826 E.01752
G1 X99.331 Y80.174 E2.64585
G1 X99.727 Y80.174 E.01756
G1 X99.727 Y139.826 E2.64585
G1 X100.122 Y139.826 E.01752
G1 X100.122 Y80.174 E2.64585
G1 X100.517 Y80.174 E.01752
G1 X100.517 Y139.826 E2.64585
G1 X100.912 Y139.826 E.01752
G1 X100.912 Y80.174 E2.64585
G1 X101.307 Y80.174 E.01752
G1 X101.307 Y139.826 E2.64585
G1 X101.702 Y139.826 E.01752
G1 X101.702 Y80.174 E2.64585
G1 X102.097 Y80.174 E.01752
G1 X102.097 Y139.826 E2.64585
G1 X102.492 Y139.826 E.01752
G1 X102.492 Y80.174 E2.64585
G1 X102.888 Y80.174 E.01756
G1 X102.888 Y139.826 E2.64585
G1 X103.283 Y139.826 E.01752
G1 X103.283 Y80.174 E2.64585
G1 X103.678 Y80.174 E.01752
G1 X103.678 Y139.826 E2.64585
G1 X104.073 Y139.826 E.01752
G1 X104.073 Y80.174 E2.64585
G1 X104.468 Y80.174 E.01752
G1 X104.468 Y139.826 E2.64585
G1 X104.863 Y139.826 E.01752
G1 X104.863 Y80.174 E2.64585
G1 X105.258 Y80.174 E.01752
G1 X105.258 Y139.826 E2.64585
G1 X105.654 Y139.826 E.01756
G1 X105.654 Y80.174 E2.64585
G1 X106.049 Y80.174 E.01752
G1 X106.049 Y139.826 E2.64585
G1 X106.444 Y139.826 E.01752
G1 X106.444 Y80.174 E2.64585
G1 X106.839 Y80.174 E.01752
G1 X106.839 Y139.826 E2.64585
G1 X107.234 Y139.826 E.01752
G1 X107.234 Y80.174 E2.64585
G1 X107.629 Y80.174 E.01752
G1 X107.629 Y139.826 E2.64585
G1 X108.024 Y139.826 E.01752
G1 X108.024 Y80.174 E2.64585
G1 X108.419 Y80.174 E.01752
G1 X108.419 Y139.826 E2.64585
G1 X108.815 Y139.826 E.01756
G1 X108.815 Y80.174 E2.64585
G1 X109.21 Y80.174 E.01752
G1 X109.21 Y139.826 E2.64585
G1 X109.605 Y139.826 E.01752
G1 X109.605 Y80.174 E2.64585
G1 X110 Y80.174 E.01752
G1 X110 Y139.826 E2.64585
G1 X110.395 Y139.826 E.01752
G1 X110.395 Y80.174 E2.64585
G1 X110.79 Y80.174 E.01752
G1 X110.79 Y139.826 E2.64585
G1 X111.185 Y139.826 E.01752
G1 X111.185 Y80.174 E2.64585
G1 X111.581 Y80.174 E.01756
G1 X111.581 Y139.826 E2.64585
G1 X111.976 Y139.826 E.01752
G1 X111.976 Y80.174 E2.64585
G1 X112.371 Y80.174 E.01752
G1 X112.371 Y139.826 E2.64585
G1 X112.766 Y139.826 E.01752
G1 X112.766 Y80.174 E2.64585
G1 X113.161 Y80.174 E.01752
G1 X113.161 Y139.826 E2.64585
G1 X113.556 Y139.826 E.01752
G1 X113.556 Y80.174 E2.64585
G1 X113.951 Y80.174 E.01752
G1 X113.951 Y139.826 E2.64585
G1 X114.346 Y139.826 E.01752
G1 X114.346 Y80.174 E2.64585
G1 X114.742 Y80.174 E.01756
G1 X114.742 Y139.826 E2.64585
G1 X115.137 Y139.826 E.01752
G1 X115.137 Y80.174 E2.64585
G1 X115.532 Y80.174 E.01752
G1 X115.532 Y139.826 E2.64585
G1 X115.927 Y139.826 E.01752
G1 X115.927 Y80.174 E2.64585
G1 X116.322 Y80.174 E.01752
G1 X116.322 Y139.826 E2.64585
G1 X116.717 Y139.826 E.01752
G1 X116.717 Y80.174 E2.64585
G1 X117.112 Y80.174 E.01752
G1 X117.112 Y139.826 E2.64585
G1 X117.508 Y139.826 E.01756
G1 X117.508 Y80.174 E2.64585
G1 X117.903 Y80.174 E.01752
G1 X117.903 Y139.826 E2.64585
G1 X118.298 Y139.826 E.01752
G1 X118.298 Y80.174 E2.64585
G1 X118.693 Y80.174 E.01752
G1 X118.693 Y139.826 E2.64585
G1 X119.088 Y139.826 E.01752
G1 X119.088 Y80.174 E2.64585
G1 X119.483 Y80.174 E.01752
G1 X119.483 Y139.826 E2.64585
G1 X119.878 Y139.826 E.01752
G1 X119.878 Y80.174 E2.64585
G1 X120.273 Y80.174 E.01752
G1 X120.273 Y139.826 E2.64585
G1 X120.669 Y139.826 E.01756
G1 X120.669 Y80.174 E2.64585
G1 X121.064 Y80.174 E.01752
G1 X121.064 Y139.826 E2.64585
G1 X121.459 Y139.826 E.01752
G1 X121.459 Y80.174 E2.64585
G1 X121.854 Y80.174 E.01752
G1 X121.854 Y139.826 E2.64585
G1 X122.249 Y139.826 E.01752
G1 X122.249 Y80.174 E2.64585
G1 X122.644 Y80.174 E.01752
G1 X122.644 Y139.826 E2.64585
G1 X123.039 Y139.826 E.01752
G1 X123.039 Y80.174 E2.64585
G1 X123.434 Y80.174 E.01752
G1 X123.434 Y139.826 E2.64585
G1 X123.83 Y139.826 E.01756
G1 X123.83 Y80.174 E2.64585
G1 X124.225 Y80.174 E.01752
G1 X124.225 Y139.826 E2.64585
G1 X124.62 Y139.826 E.01752
G1 X124.62 Y80.174 E2.64585
G1 X125.015 Y80.174 E.01752
G1 X125.015 Y139.826 E2.64585
G1 X125.41 Y139.826 E.01752
G1 X125.41 Y80.174 E2.64585
G1 X125.805 Y80.174 E.01752
G1 X125.805 Y139.826 E2.64585
G1 X126.2 Y139.826 E.01752
G1 X126.2 Y80.174 E2.64585
G1 X126.596 Y80.174 E.01756
G1 X126.596 Y139.826 E2.64585
G1 X126.991 Y139.826 E.01752
G1 X126.991 Y80.174 E2.64585
G1 X127.386 Y80.174 E.01752
G1 X127.386 Y139.826 E2.64585
G1 X127.781 Y139.826 E.01752
G1 X127.781 Y80.174 E2.64585
G1 X128.176 Y80.174 E.01752
G1 X128.176 Y139.826 E2.64585
G1 X128.571 Y139.826 E.01752
G1 X128.571 Y80.174 E2.64585
G1 X128.966 Y80.174 E.01752
G1 X128.966 Y139.826 E2.64585
G1 X129.361 Y139.826 E.01752
G1 X129.361 Y80.174 E2.64585
G1 X129.757 Y80.174 E.01756
G1 X129.757 Y139.826 E2.64585
G1 X130.152 Y139.826 E.01752
G1 X130.152 Y80.174 E2.64585
G1 X130.547 Y80.174 E.01752
G1 X130.547 Y139.826 E2.64585
G1 X130.942 Y139.826 E.01752
G1 X130.942 Y80.174 E2.64585
G1 X131.337 Y80.174 E.01752
G1 X131.337 Y139.826 E2.64585
G1 X131.732 Y139.826 E.01752
G1 X131.732 Y80.174 E2.64585
G1 X132.127 Y80.174 E.01752
G1 X132.127 Y139.826 E2.64585
G1 X132.523 Y139.826 E.01756
G1 X132.523 Y80.174 E2.64585
G1 X132.918 Y80.174 E.01752
G1 X132.918 Y139.826 E2.64585
G1 X133.313 Y139.826 E.01752
G1 X133.313 Y80.174 E2.64585
G1 X133.708 Y80.174 E.01752
G1 X133.708 Y139.826 E2.64585
G1 X134.103 Y139.826 E.01752
G1 X134.103 Y80.174 E2.64585
G1 X134.498 Y80.174 E.01752
G1 X134.498 Y139.826 E2.64585
G1 X134.893 Y139.826 E.01752
G1 X134.893 Y80.174 E2.64585
G1 X135.288 Y80.174 E.01752
G1 X135.288 Y139.826 E2.64585
G1 X135.684 Y139.826 E.01756
G1 X135.684 Y80.174 E2.64585
G1 X136.079 Y80.174 E.01752
G1 X136.079 Y139.826 E2.64585
G1 X136.474 Y139.826 E.01752
G1 X136.474 Y80.174 E2.64585
G1 X136.869 Y80.174 E.01752
G1 X136.869 Y139.826 E2.64585
G1 X137.264 Y139.826 E.01752
G1 X137.264 Y80.174 E2.64585
G1 X137.659 Y80.174 E.01752
G1 X137.659 Y139.826 E2.64585
G1 X138.054 Y139.826 E.01752
G1 X138.054 Y80.174 E2.64585
G1 X138.379 Y80.174 E.01442
G1 X138.45 Y80.245 E.00445
G1 X138.45 Y139.755 E2.63956
G1 X138.845 Y139.36 E.02478
G1 X138.845 Y80.64 E2.60451
G1 X139.24 Y81.035 E.02478
G1 X139.24 Y138.965 E2.56947
G1 X139.635 Y138.57 E.02478
G1 X139.635 Y81.43 E2.53443
G1 X139.826 Y81.621 E.01198
G1 X139.826 Y81.824 E.009
;LAYER_CHANGE
;Z:0.6
;HEIGHT:0.3
;BEFORE_LAYER_CHANGE
G92 E0
;0.6


G1 E-.42 F3600
;WIPE_START
G1 F7200
G1 X139.826 Y81.621 E-.09643
G1 X139.702 Y81.497 E-.08357
;WIPE_END
G1 Z.6 F9000
;AFTER_LAYER_CHANGE
;0.6
G1 Z.6
G1 X141.668 Y80.683
G1 E.6 F2400
;TYPE:Skirt/Brim
G1 X142.001 Y81.489 E.03868
G1 X142.001 Y138.511 E2.5292
G1 X141.458 Y139.824 E.06302
G1 X139.824 Y141.458 E.1025
G1 X138.511 Y142.001 E.06302
G1 X81.489 Y142.001 E2.5292
G1 X80.176 Y141.458 E.06302
G1 X78.542 Y139.824 E.1025
G1 X77.999 Y138.511 E.06302
G1 X77.999 Y81.489 E2.5292
G1 X78.542 Y80.176 E.06302
G1 X80.176 Y78.542 E.1025
G1 X81.489 Y77.999 E.06302
G1 X138.511 Y77.999 E2.5292
G1 X139.824 Y78.542 E.06302
G1 X141.458 Y80.176 E.1025
G1 X141.645 Y80.627 E.02166
G1 E-.42 F3600
;WIPE_START
G1 F7200
G1 X141.668 Y80.683 E-.02876
G1 X141.79 Y80.977 E-.15124
;WIPE_END
G1 X137.708 Y136.408 F9000
G1 E.6 F2400
;TYPE:Support material
;WIDTH:0.36
G1 X137.708 Y137.502 E.04034
G1 X137.502 Y137.708 E.01074
G1 X136.901 Y137.708 E.02216
G1 X136.814 Y137.556 E.00646
G1 X135.147 Y137.556 E.06146
G1 X135.059 Y137.708 E.00648
G1 X132.413 Y137.708 E.09756
G1 X132.326 Y137.556 E.00646
G1 X130.659 Y137.556 E.06146
G1 X130.571 Y137.708 E.00648
G1 X127.925 Y137.708 E.09756
G1 X127.837 Y137.556 E.00648
G1 X126.171 Y137.556 E.06143
G1 X126.083 Y137.708 E.00648
G1 X123.437 Y137.708 E.09756
G1 X123.349 Y137.556 E.00648
G1 X121.683 Y137.556 E.06143
G1 X121.595 Y137.708 E.00648
G1 X118.949 Y137.708 E.09756
G1 X118.861 Y137.556 E.00648
G1 X117.194 Y137.556 E.06146
G1 X117.107 Y137.708 E.00646
G1 X114.461 Y137.708 E.09756
G1 X114.373 Y137.556 E.00648
G1 X112.706 Y137.556 E.06146
G1 X112.619 Y137.708 E.00646
G1 X109.973 Y137.708 E.09756
G1 X109.885 Y137.556 E.00648
G1 X108.218 Y137.556 E.06146
G1 X108.131 Y137.708 E.00646
G1 X105.484 Y137.708 E.0976
G1 X105.397 Y137.556 E.00646
G1 X103.73 Y137.556 E.06146
G1 X103.642 Y137.708 E.00648
G1 X100.996 Y137.708 E.09756
G1 X100.909 Y137.556 E.00646
G1 X99.242 Y137.556 E.06146
G1 X99.154 Y137.708 E.00648
G1 X96.508 Y137.708 E.09756
G1 X96.42 Y137.556 E.00648
G1 X94.754 Y137.556 E.06143
G1 X94.666 Y137.708 E.00648
G1 X92.02 Y137.708 E.09756
G1 X91.932 Y137.556 E.00648
G1 X90.266 Y137.556 E.06143
G1 X90.178 Y137.708 E.00648
G1 X87.532 Y137.708 E.09756
G1 X87.444 Y137.556 E.00648
G1 X85.777 Y137.556 E.06146
G1 X85.69 Y137.708 E.00646
G1 X83.044 Y137.708 E.09756
G1 X82.956 Y137.556 E.00648
G1 X82.292 Y137.502 E.02456
G1 X82.292 Y137.261 E.00889
G1 X82.956 Y137.261 E.02448
G1 X83.533 Y136.261 E.04257
G1 X85.2 Y136.261 E.06146
G1 X85.777 Y137.261 E.04257
G1 X87.444 Y137.261 E.06146
G1 X88.022 Y136.261 E.04259
G1 X89.688 Y136.261 E.06143
G1 X90.266 Y137.261 E.04259
G1 X91.932 Y137.261 E.06143
G1 X92.51 Y136.261 E.04259
G1 X94.176 Y136.261 E.06143
G1 X94.754 Y137.261 E.04259
G1 X96.42 Y137.261 E.06143
G1 X96.998 Y136.261 E.04259
G1 X98.665 Y136.261 E.06146
G1 X99.242 Y137.261 E.04257
G1 X100.909 Y137.261 E.06146
G1 X101.486 Y136.261 E.04257
G1 X103.153 Y136.261 E.06146
G1 X103.73 Y137.261 E.04257
G1 X105.397 Y137.261 E.06146
G1 X105.974 Y136.261 E.04257
G1 X107.641 Y136.261 E.06146
G1 X108.218 Y137.261 E.04257
G1 X109.885 Y137.261 E.06146
G1 X110.462 Y136.261 E.04257
G1 X112.129 Y136.261 E.06146
G1 X112.706 Y137.261 E.04257
G1 X114.373 Y137.261 E.06146
G1 X114.95 Y136.261 E.04257
G1 X116.617 Y136.261 E.06146
G1 X117.194 Y137.261 E.04257
G1 X118.861 Y137.261 E.06146
G1 X119.439 Y136.261 E.04259
G1 X121.105 Y136.261 E.06143
G1 X121.683 Y137.261 E.04259
G1 X123.349 Y137.261 E.06143
G1 X123.927 Y136.261 E.04259
G1 X125.593 Y136.261 E.06143
G1 X126.171 Y137.261 E.04259
G1 X127.837 Y137.261 E.06143
G1 X128.415 Y136.261 E.04259
G1 X130.082 Y136.261 E.06146
G1 X130.659 Y137.261 E.04257
G1 X132.326 Y137.261 E.06146
G1 X132.903 Y136.261 E.04257
G1 X134.57 Y136.261 E.06146
G1 X135.147 Y137.261 E.04257
G1 X136.814 Y137.261 E.06146
G1 X137.391 Y136.261 E.04257
G1 X137.708 Y136.261 E.01169
G1 X137.708 Y135.965 E.01091
G1 X137.391 Y135.965 E.01169
G1 X136.814 Y134.965 E.04257
G1 X135.147 Y134.965 E.06146
G1 X134.57 Y135.965 E.04257
G1 X132.903 Y135.965 E.06146
G1 X132.326 Y134.965 E.04257
G1 X130.659 Y134.965 E.06146
G1 X130.082 Y135.965 E.04257
G1 X128.415 Y135.965 E.06146
G1 X127.837 Y134.965 E.04259
G1 X126.171 Y134.965 E.06143
G1 X125.593 Y135.965 E.04259
G1 X123.927 Y135.965 E.06143
G1 X123.349 Y134.965 E.04259
G1 X121.683 Y134.965 E.06143
G1 X121.105 Y135.965 E.04259
G1 X119.439 Y135.965 E.06143
G1 X118.861 Y134.965 E.04259
G1 X117.194 Y134.965 E.06146
G1 X116.617 Y135.965 E.04257
G1 X114.95 Y135.965 E.06146
G1 X114.373 Y134.965 E.04257
G1 X112.706 Y134.965 E.06146
G1 X112.129 Y135.965 E.04257
G1 X110.462 Y135.965 E.06146
G1 X109.885 Y134.965 E.04257
G1 X108.218 Y134.965 E.06146
G1 X107.641 Y135.965 E.04257
G1 X105.974 Y135.965 E.06146
G1 X105.397 Y134.965 E.04257
G1 X103.73 Y134.965 E.06146
G1 X103.153 Y135.965 E.04257
G1 X101.486 Y135.965 E.06146
G1 X100.909 Y134.965 E.04257
G1 X99.242 Y134.965 E.06146
G1 X98.665 Y135.965 E.04257
G1 X96.998 Y135.965 E.06146
G1 X96.42 Y134.965 E.04259
G1 X94.754 Y134.965 E.06143
G1 X94.176 Y135.965 E.04259
G1 X92.51 Y135.965 E.06143
G1 X91.932 Y134.965 E.04259
G1 X90.266 Y134.965 E.06143
G1 X89.688 Y135.965 E.04259
G1 X88.022 Y135.965 E.06143
G1 X87.444 Y134.965 E.04259
G1 X85.777 Y134.965 E.06146
G1 X85.2 Y135.965 E.04257
G1 X83.533 Y135.965 E.06146
G1 X82.956 Y134.965 E.04257
G1 X82.292 Y134.965 E.02448
G1 X82.292 Y134.669 E.01091
G1 X82.956 Y134.669 E.02448
G1 X83.533 Y133.669 E.04257
G1 X85.2 Y133.669 E.06146
