; generated by PrusaSlicer 2.7.4+win64 on 2025-03-29 at 08:26:52 UTC

; 

; external perimeters extrusion width = 0.42mm
; perimeters extrusion width = 0.44mm
; infill extrusion width = 0.44mm
; solid infill extrusion width = 0.44mm
; top infill extrusion width = 0.40mm
; support material extrusion width = 0.36mm
; first layer extrusion width = 0.42mm

M104 S215 ; set temperature
;TYPE:Custom
START_PRINT
M109 S215 ; set temperature and wait for it to be reached
G21 ; set units to millimeters
G90 ; use absolute coordinates
M83 ; use relative distances for extrusion
; Filament gcode
M107
;LAYER_CHANGE
;Z:0.3
;HEIGHT:0.3
G1 E-.6 F3600
G1 Z.3 F9000
G1 X73.698 Y101.863
G1 Z.3
G1 E.6 F2400
M204 S500
;TYPE:Skirt/Brim
;WIDTH:0.42
G1 F1200
G1 X75.01 Y101.32 E.06298
G1 X144.99 Y101.32 E3.10395
G1 X146.302 Y101.863 E.06298
G1 X147.936 Y103.498 E.10253
G1 X148.48 Y104.81 E.063
G1 X148.48 Y115.19 E.4604
G1 X147.936 Y116.502 E.063
G1 X146.302 Y118.137 E.10253
G1 X144.99 Y118.68 E.06298
G1 X75.01 Y118.68 E3.10395
G1 X73.698 Y118.137 E.06298
G1 X72.064 Y116.502 E.10253
G1 X71.52 Y115.19 E.063
G1 X71.52 Y104.81 E.4604
G1 X72.064 Y103.498 E.063
G1 X73.656 Y101.906 E.09986
G1 E-.42 F3600
;WIPE_START
G1 F7200
G1 X73.698 Y101.863 E-.02855
G1 X73.993 Y101.741 E-.15145
;WIPE_END
G1 X146.624 Y104.81 F9000
G1 E.6 F2400
;TYPE:Support material
G1 F1200
G1 X146.624 Y115.19 E.4604
G1 X144.99 Y116.825 E.10253
G1 X75.01 Y116.825 E3.10395
G1 X73.376 Y115.19 E.10253
G1 X73.376 Y104.81 E.4604
G1 X75.01 Y103.175 E.10253
G1 X144.99 Y103.175 E3.10395
G1 X146.586 Y104.772 E.10014
G1 E-.42 F3600
;WIPE_START
G1 F7200
G1 X146.318 Y104.504 E-.18
;WIPE_END
G1 X73.917 Y104.721 F9000
G1 E.6 F2400
G1 F1200
G1 X73.696 Y104.942 E.01386
G1 X73.696 Y115.058 E.44869
G1 X74.043 Y115.405 E.02177
G1 X74.043 Y104.595 E.47948
G1 X74.438 Y104.2 E.02478
G1 X74.438 Y115.8 E.51452
G1 X74.833 Y116.195 E.02478
G1 X74.833 Y103.805 E.54956
G1 X75.143 Y103.495 E.01945
G1 X75.228 Y103.495 E.00377
G1 X75.228 Y116.505 E.57706
G1 X75.624 Y116.505 E.01756
G1 X75.624 Y103.495 E.57706
G1 X76.019 Y103.495 E.01752
G1 X76.019 Y116.505 E.57706
G1 X76.414 Y116.505 E.01752
G1 X76.414 Y103.495 E.57706
G1 X76.809 Y103.495 E.01752
G1 X76.809 Y116.505 E.57706
G1 X77.204 Y116.505 E.01752
G1 X77.204 Y103.495 E.57706
G1 X77.599 Y103.495 E.01752
G1 X77.599 Y116.505 E.57706
G1 X77.994 Y116.505 E.01752
G1 X77.994 Y103.495 E.57706
G1 X78.389 Y103.495 E.01752
G1 X78.389 Y116.505 E.57706
G1 X78.785 Y116.505 E.01756
G1 X78.785 Y103.495 E.57706
G1 X79.18 Y103.495 E.01752
G1 X79.18 Y116.505 E.57706
G1 X79.575 Y116.505 E.01752
G1 X79.575 Y103.495 E.57706
G1 X79.97 Y103.495 E.01752
G1 X79.97 Y116.505 E.57706
G1 X80.365 Y116.505 E.01752
G1 X80.365 Y103.495 E.57706
G1 X80.76 Y103.495 E.01752
G1 X80.76 Y116.505 E.57706
G1 X81.155 Y116.505 E.01752
G1 X81.155 Y103.495 E.57706
G1 X81.55 Y103.495 E.01752
G1 X81.55 Y116.505 E.57706
G1 X81.946 Y116.505 E.01756
G1 X81.946 Y103.495 E.57706
G1 X82.341 Y103.495 E.01752
G1 X82.341 Y116.505 E.57706
G1 X82.736 Y116.505 E.01752
G1 X82.736 Y103.495 E.57706
G1 X83.131 Y103.495 E.01752
G1 X83.131 Y116.505 E.57706
G1 X83.526 Y116.505 E.01752
G1 X83.526 Y103.495 E.57706
G1 X83.921 Y103.495 E.01752
G1 X83.921 Y116.505 E.57706
G1 X84.316 Y116.505 E.01752
G1 X84.316 Y103.495 E.57706
G1 X84.712 Y103.495 E.01756
G1 X84.712 Y116.505 E.57706
G1 X85.107 Y116.505 E.01752
G1 X85.107 Y103.495 E.57706
G1 X85.502 Y103.495 E.01752
G1 X85.502 Y116.505 E.57706
G1 X85.897 Y116.505 E.01752
G1 X85.897 Y103.495 E.57706
G1 X86.292 Y103.495 E.01752
G1 X86.292 Y116.505 E.57706
G1 X86.687 Y116.505 E.01752
G1 X86.687 Y103.495 E.57706
G1 X87.082 Y103.495 E.01752
G1 X87.082 Y116.505 E.57706
G1 X87.477 Y116.505 E.01752
G1 X87.477 Y103.495 E.57706
G1 X87.873 Y103.495 E.01756
G1 X87.873 Y116.505 E.57706
G1 X88.268 Y116.505 E.01752
G1 X88.268 Y103.495 E.57706
G1 X88.663 Y103.495 E.01752
G1 X88.663 Y116.505 E.57706
G1 X89.058 Y116.505 E.01752
G1 X89.058 Y103.495 E.57706
G1 X89.453 Y103.495 E.01752
G1 X89.453 Y116.505 E.57706
G1 X89.848 Y116.505 E.01752
G1 X89.848 Y103.495 E.57706
G1 X90.243 Y103.495 E.01752
G1 X90.243 Y116.505 E.57706
G1 X90.639 Y116.505 E.01756
G1 X90.639 Y103.495 E.57706
G1 X91.034 Y103.495 E.01752
G1 X91.034 Y116.505 E.57706
G1 X91.429 Y116.505 E.01752
G1 X91.429 Y103.495 E.57706
G1 X91.824 Y103.495 E.01752
G1 X91.824 Y116.505 E.57706
G1 X92.219 Y116.505 E.01752
G1 X92.219 Y103.495 E.57706
G1 X92.614 Y103.495 E.01752
G1 X92.614 Y116.505 E.57706
G1 X93.009 Y116.505 E.01752
G1 X93.009 Y103.495 E.57706
G1 X93.404 Y103.495 E.01752
G1 X93.404 Y116.505 E.57706
G1 X93.8 Y116.505 E.01756
G1 X93.8 Y103.495 E.57706
G1 X94.195 Y103.495 E.01752
G1 X94.195 Y116.505 E.57706
G1 X94.59 Y116.505 E.01752
G1 X94.59 Y103.495 E.57706
G1 X94.985 Y103.495 E.01752
G1 X94.985 Y116.505 E.57706
G1 X95.38 Y116.505 E.01752
G1 X95.38 Y103.495 E.57706
G1 X95.775 Y103.495 E.01752
G1 X95.775 Y116.505 E.57706
G1 X96.17 Y116.505 E.01752
G1 X96.17 Y103.495 E.57706
G1 X96.566 Y103.495 E.01756
G1 X96.566 Y116.505 E.57706
G1 X96.961 Y116.505 E.01752
G1 X96.961 Y103.495 E.57706
G1 X97.356 Y103.495 E.01752
G1 X97.356 Y116.505 E.57706
G1 X97.751 Y116.505 E.01752
G1 X97.751 Y103.495 E.57706
G1 X98.146 Y103.495 E.01752
G1 X98.146 Y116.505 E.57706
G1 X98.541 Y116.505 E.01752
G1 X98.541 Y103.495 E.57706
G1 X98.936 Y103.495 E.01752
G1 X98.936 Y116.505 E.57706
G1 X99.331 Y116.505 E.01752
G1 X99.331 Y103.495 E.57706
G1 X99.727 Y103.495 E.01756
G1 X99.727 Y116.505 E.57706
G1 X100.122 Y116.505 E.01752
G1 X100.122 Y103.495 E.57706
G1 X100.517 Y103.495 E.01752
G1 X100.517 Y116.505 E.57706
G1 X100.912 Y116.505 E.01752
G1 X100.912 Y103.495 E.57706
G1 X101.307 Y103.495 E.01752
G1 X101.307 Y116.505 E.57706
G1 X101.702 Y116.505 E.01752
G1 X101.702 Y103.495 E.57706
G1 X102.097 Y103.495 E.01752
G1 X102.097 Y116.505 E.57706
G1 X102.492 Y116.505 E.01752
G1 X102.492 Y103.495 E.57706
G1 X102.888 Y103.495 E.01756
G1 X102.888 Y116.505 E.57706
G1 X103.283 Y116.505 E.01752
G1 X103.283 Y103.495 E.57706
G1 X103.678 Y103.495 E.01752
G1 X103.678 Y116.505 E.57706
G1 X104.073 Y116.505 E.01752
G1 X104.073 Y103.495 E.57706
G1 X104.468 Y103.495 E.01752
G1 X104.468 Y116.505 E.57706
G1 X104.863 Y116.505 E.01752
G1 X104.863 Y103.495 E.57706
G1 X105.258 Y103.495 E.01752
G1 X105.258 Y116.505 E.57706
G1 X105.654 Y116.505 E.01756
G1 X105.654 Y103.495 E.57706
G1 X106.049 Y103.495 E.01752
G1 X106.049 Y116.505 E.57706
G1 X106.444 Y116.505 E.01752
G1 X106.444 Y103.495 E.57706
G1 X106.839 Y103.495 E.01752
G1 X106.839 Y116.505 E.57706
G1 X107.234 Y116.505 E.01752
G1 X107.234 Y103.495 E.57706
G1 X107.629 Y103.495 E.01752
G1 X107.629 Y116.505 E.57706
G1 X108.024 Y116.505 E.01752
G1 X108.024 Y103.495 E.57706
G1 X108.419 Y103.495 E.01752
G1 X108.419 Y116.505 E.57706
G1 X108.815 Y116.505 E.01756
G1 X108.815 Y103.495 E.57706
G1 X109.21 Y103.495 E.01752
G1 X109.21 Y116.505 E.57706
G1 X109.605 Y116.505 E.01752
G1 X109.605 Y103.495 E.57706
G1 X110 Y103.495 E.01752
G1 X110 Y116.505 E.57706
G1 X110.395 Y116.505 E.01752
G1 X110.395 Y103.495 E.57706
G1 X110.79 Y103.495 E.01752
G1 X110.79 Y116.505 E.57706
G1 X111.185 Y116.505 E.01752
G1 X111.185 Y103.495 E.57706
G1 X111.581 Y103.495 E.01756
G1 X111.581 Y116.505 E.57706
G1 X111.976 Y116.505 E.01752
G1 X111.976 Y103.495 E.57706
G1 X112.371 Y103.495 E.01752
G1 X112.371 Y116.505 E.57706
G1 X112.766 Y116.505 E.01752
G1 X112.766 Y103.495 E.57706
G1 X113.161 Y103.495 E.01752
G1 X113.161 Y116.505 E.57706
G1 X113.556 Y116.505 E.01752
G1 X113.556 Y103.495 E.57706
G1 X113.951 Y103.495 E.01752
G1 X113.951 Y116.505 E.57706
G1 X114.346 Y116.505 E.01752
G1 X114.346 Y103.495 E.57706
G1 X114.742 Y103.495 E.01756
G1 X114.742 Y116.505 E.57706
G1 X115.137 Y116.505 E.01752
G1 X115.137 Y103.495 E.57706
G1 X115.532 Y103.495 E.01752
G1 X115.532 Y116.505 E.57706
G1 X115.927 Y116.505 E.01752
G1 X115.927 Y103.495 E.57706
G1 X116.322 Y103.495 E.01752
G1 X116.322 Y116.505 E.57706
G1 X116.717 Y116.505 E.01752
G1 X116.717 Y103.495 E.57706
G1 X117.112 Y103.495 E.01752
G1 X117.112 Y116.505 E.57706
G1 X117.508 Y116.505 E.01756
G1 X117.508 Y103.495 E.57706
G1 X117.903 Y103.495 E.01752
G1 X117.903 Y116.505 E.57706
G1 X118.298 Y116.505 E.01752
G1 X118.298 Y103.495 E.57706
G1 X118.693 Y103.495 E.01752
G1 X118.693 Y116.505 E.57706
G1 X119.088 Y116.505 E.01752
G1 X119.088 Y103.495 E.57706
G1 X119.483 Y103.495 E.01752
G1 X119.483 Y116.505 E.57706
G1 X119.878 Y116.505 E.01752
G1 X119.878 Y103.495 E.57706
G1 X120.273 Y103.495 E.01752
G1 X120.273 Y116.505 E.57706
G1 X120.669 Y116.505 E.01756
G1 X120.669 Y103.495 E.57706
G1 X121.064 Y103.495 E.01752
G1 X121.064 Y116.505 E.57706
G1 X121.459 Y116.505 E.01752
G1 X121.459 Y103.495 E.57706
G1 X121.854 Y103.495 E.01752
G1 X121.854 Y116.505 E.57706
G1 X122.249 Y116.505 E.01752
G1 X122.249 Y103.495 E.57706
G1 X122.644 Y103.495 E.01752
G1 X122.644 Y116.505 E.57706
G1 X123.039 Y116.505 E.01752
G1 X123.039 Y103.495 E.57706
G1 X123.434 Y103.495 E.01752
G1 X123.434 Y116.505 E.57706
G1 X123.83 Y116.505 E.01756
G1 X123.83 Y103.495 E.57706
G1 X124.225 Y103.495 E.01752
G1 X124.225 Y116.505 E.57706
G1 X124.62 Y116.505 E.01752
G1 X124.62 Y103.495 E.57706
G1 X125.015 Y103.495 E.01752
G1 X125.015 Y116.505 E.57706
G1 X125.41 Y116.505 E.01752
G1 X125.41 Y103.495 E.57706
G1 X125.805 Y103.495 E.01752
G1 X125.805 Y116.505 E.57706
G1 X126.2 Y116.505 E.01752
G1 X126.2 Y103.495 E.57706
G1 X126.596 Y103.495 E.01756
G1 X126.596 Y116.505 E.57706
G1 X126.991 Y116.505 E.01752
G1 X126.991 Y103.495 E.57706
G1 X127.386 Y103.495 E.01752
G1 X127.386 Y116.505 E.57706
G1 X127.781 Y116.505 E.01752
G1 X127.781 Y103.495 E.57706
G1 X128.176 Y103.495 E.01752
G1 X128.176 Y116.505 E.57706
G1 X128.571 Y116.505 E.01752
G1 X128.571 Y103.495 E.57706
G1 X128.966 Y103.495 E.01752
G1 X128.966 Y116.505 E.57706
G1 X129.361 Y116.505 E.01752
G1 X129.361 Y103.495 E.57706
G1 X129.757 Y103.495 E.01756
G1 X129.757 Y116.505 E.57706
G1 X130.152 Y116.505 E.01752
G1 X130.152 Y103.495 E.57706
G1 X130.547 Y103.495 E.01752
G1 X130.547 Y116.505 E.57706
G1 X130.942 Y116.505 E.01752
G1 X130.942 Y103.495 E.57706
G1 X131.337 Y103.495 E.01752
G1 X131.337 Y116.505 E.57706
G1 X131.732 Y116.505 E.01752
G1 X131.732 Y103.495 E.57706
G1 X132.127 Y103.495 E.01752
G1 X132.127 Y116.505 E.57706
G1 X132.523 Y116.505 E.01756
G1 X132.523 Y103.495 E.57706
G1 X132.918 Y103.495 E.01752
G1 X132.918 Y116.505 E.57706
G1 X133.313 Y116.505 E.01752
G1 X133.313 Y103.495 E.57706
G1 X133.708 Y103.495 E.01752
G1 X133.708 Y116.505 E.57706
G1 X134.103 Y116.505 E.01752
G1 X134.103 Y103.495 E.57706
G1 X134.498 Y103.495 E.01752
G1 X134.498 Y116.505 E.57706
G1 X134.893 Y116.505 E.01752
G1 X134.893 Y103.495 E.57706
G1 X135.288 Y103.495 E.01752
G1 X135.288 Y116.505 E.57706
G1 X135.684 Y116.505 E.01756
G1 X135.684 Y103.495 E.57706
G1 X136.079 Y103.495 E.01752
G1 X136.079 Y116.505 E.57706
G1 X136.474 Y116.505 E.01752
G1 X136.474 Y103.495 E.57706
G1 X136.869 Y103.495 E.01752
G1 X136.869 Y116.505 E.57706
G1 X137.264 Y116.505 E.01752
G1 X137.264 Y103.495 E.57706
G1 X137.659 Y103.495 E.01752
G1 X137.659 Y116.505 E.57706
G1 X138.054 Y116.505 E.01752
G1 X138.054 Y103.495 E.57706
G1 X138.45 Y103.495 E.01756
G1 X138.45 Y116.505 E.57706
G1 X138.845 Y116.505 E.01752
G1 X138.845 Y103.495 E.57706
G1 X139.24 Y103.495 E.01752
G1 X139.24 Y116.505 E.57706
G1 X139.635 Y116.505 E.01752
G1 X139.635 Y103.495 E.57706
G1 X140.03 Y103.495 E.01752
G1 X140.03 Y116.505 E.57706
G1 X140.425 Y116.505 E.01752
G1 X140.425 Y103.495 E.57706
G1 X140.82 Y103.495 E.01752
G1 X140.82 Y116.505 E.57706
G1 X141.215 Y116.505 E.01752
G1 X141.215 Y103.495 E.57706
G1 X141.611 Y103.495 E.01756
G1 X141.611 Y116.505 E.57706
G1 X142.006 Y116.505 E.01752
G1 X142.006 Y103.495 E.57706
G1 X142.401 Y103.495 E.01752
G1 X142.401 Y116.505 E.57706
G1 X142.796 Y116.505 E.01752
G1 X142.796 Y103.495 E.57706
G1 X143.191 Y103.495 E.01752
G1 X143.191 Y116.505 E.57706
G1 X143.586 Y116.505 E.01752
G1 X143.586 Y103.495 E.57706
G1 X143.981 Y103.495 E.01752
G1 X143.981 Y116.505 E.57706
G1 X144.376 Y116.505 E.01752
G1 X144.376 Y103.495 E.57706
G1 X144.772 Y103.495 E.01756
G1 X144.772 Y116.505 E.57706
G1 X144.857 Y116.505 E.00377
G1 X145.167 Y116.195 E.01945
G1 X145.167 Y103.805 E.54956
G1 X145.562 Y104.2 E.02478
G1 X145.562 Y115.8 E.51452
G1 X145.957 Y115.405 E.02478
G1 X145.957 Y104.595 E.47948
G1 X146.304 Y104.942 E.02177
G1 X146.304 Y115.058 E.44869
G1 X146.083 Y115.279 E.01386
;LAYER_CHANGE
;Z:0.6
;HEIGHT:0.3
;BEFORE_LAYER_CHANGE
G92 E0
;0.6


G1 E-.42 F3600
;WIPE_START
G1 F7200
G1 X146.304 Y115.058 E-.14846
G1 X146.304 Y114.992 E-.03154
;WIPE_END
G1 Z.6 F9000
;AFTER_LAYER_CHANGE
;0.6
G1 Z.6
G1 X148.231 Y115.79
G1 E.6 F2400
;TYPE:Skirt/Brim
G1 X147.936 Y116.502 E.03418
G1 X146.302 Y118.137 E.10253
G1 X144.99 Y118.68 E.06298
G1 X75.01 Y118.68 E3.10395
G1 X73.698 Y118.137 E.06298
G1 X72.064 Y116.502 E.10253
G1 X71.52 Y115.19 E.063
G1 X71.52 Y104.81 E.4604
G1 X72.064 Y103.498 E.063
G1 X73.698 Y101.863 E.10253
G1 X75.01 Y101.32 E.06298
G1 X144.99 Y101.32 E3.10395
G1 X146.302 Y101.863 E.06298
G1 X147.936 Y103.498 E.10253
G1 X148.48 Y104.81 E.063
G1 X148.48 Y115.19 E.4604
G1 X148.254 Y115.735 E.02617
G1 E-.42 F3600
;WIPE_START
G1 F7200
G1 X148.231 Y115.79 E-.02832
G1 X148.109 Y116.085 E-.15168
;WIPE_END
G1 X75.814 Y107.314 F9000
G1 E.6 F2400
;TYPE:Support material
;WIDTH:0.36
G1 X75.814 Y105.819 E.05512
G1 X76.02 Y105.613 E.01074
G1 X76.482 Y105.613 E.01703
G1 X76.801 Y106.166 E.02354
G1 X78.468 Y106.166 E.06146
G1 X78.787 Y105.613 E.02354
G1 X80.97 Y105.613 E.08049
G1 X81.289 Y106.166 E.02354
G1 X82.956 Y106.166 E.06146
G1 X83.275 Y105.613 E.02354
G1 X85.458 Y105.613 E.08049
G1 X85.777 Y106.166 E.02354
G1 X87.444 Y106.166 E.06146
G1 X87.763 Y105.613 E.02354
G1 X89.947 Y105.613 E.08053
G1 X90.266 Y106.166 E.02354
G1 X91.932 Y106.166 E.06143
G1 X92.251 Y105.613 E.02354
G1 X94.435 Y105.613 E.08053
G1 X94.754 Y106.166 E.02354
G1 X96.42 Y106.166 E.06143
G1 X96.74 Y105.613 E.02356
G1 X98.923 Y105.613 E.08049
G1 X99.242 Y106.166 E.02354
G1 X100.909 Y106.166 E.06146
G1 X101.228 Y105.613 E.02354
G1 X103.411 Y105.613 E.08049
G1 X103.73 Y106.166 E.02354
G1 X105.397 Y106.166 E.06146
G1 X105.716 Y105.613 E.02354
G1 X107.899 Y105.613 E.08049
G1 X108.218 Y106.166 E.02354
G1 X109.885 Y106.166 E.06146
G1 X110.204 Y105.613 E.02354
G1 X112.387 Y105.613 E.08049
G1 X112.706 Y106.166 E.02354
G1 X114.373 Y106.166 E.06146
G1 X114.692 Y105.613 E.02354
G1 X116.875 Y105.613 E.08049
G1 X117.194 Y106.166 E.02354
G1 X118.861 Y106.166 E.06146
G1 X119.18 Y105.613 E.02354
G1 X121.364 Y105.613 E.08053
G1 X121.683 Y106.166 E.02354
G1 X123.349 Y106.166 E.06143
G1 X123.668 Y105.613 E.02354
G1 X125.852 Y105.613 E.08053
G1 X126.171 Y106.166 E.02354
G1 X127.837 Y106.166 E.06143
G1 X128.157 Y105.613 E.02356
G1 X130.34 Y105.613 E.08049
G1 X130.659 Y106.166 E.02354
G1 X132.326 Y106.166 E.06146
G1 X132.645 Y105.613 E.02354
G1 X134.828 Y105.613 E.08049
G1 X135.147 Y106.166 E.02354
G1 X136.814 Y106.166 E.06146
G1 X137.133 Y105.613 E.02354
G1 X139.316 Y105.613 E.08049
G1 X139.635 Y106.166 E.02354
G1 X141.302 Y106.166 E.06146
G1 X141.621 Y105.613 E.02354
G1 X143.804 Y105.613 E.08049
G1 X144.123 Y106.166 E.02354
G1 X144.186 Y106.166 E.00232
G1 X144.186 Y106.461 E.01088
G1 X144.123 Y106.461 E.00232
G1 X143.546 Y107.461 E.04257
G1 X141.879 Y107.461 E.06146
G1 X141.302 Y106.461 E.04257
G1 X139.635 Y106.461 E.06146
G1 X139.058 Y107.461 E.04257
G1 X137.391 Y107.461 E.06146
G1 X136.814 Y106.461 E.04257
G1 X135.147 Y106.461 E.06146
G1 X134.57 Y107.461 E.04257
G1 X132.903 Y107.461 E.06146
G1 X132.326 Y106.461 E.04257
G1 X130.659 Y106.461 E.06146
G1 X130.082 Y107.461 E.04257
G1 X128.415 Y107.461 E.06146
G1 X127.837 Y106.461 E.04259
G1 X126.171 Y106.461 E.06143
G1 X125.593 Y107.461 E.04259
G1 X123.927 Y107.461 E.06143
G1 X123.349 Y106.461 E.04259
G1 X121.683 Y106.461 E.06143
G1 X121.105 Y107.461 E.04259
G1 X119.439 Y107.461 E.06143
G1 X118.861 Y106.461 E.04259
G1 X117.194 Y106.461 E.06146
G1 X116.617 Y107.461 E.04257
G1 X114.95 Y107.461 E.06146
G1 X114.373 Y106.461 E.04257
G1 X112.706 Y106.461 E.06146
G1 X112.129 Y107.461 E.04257
