; generated by PrusaSlicer 2.7.4+win64 on 2025-04-20 at 10:42:13 UTC

; 

; external perimeters extrusion width = 0.42mm
; perimeters extrusion width = 0.44mm
; infill extrusion width = 0.44mm
; solid infill extrusion width = 0.44mm
; top infill extrusion width = 0.40mm
; support material extrusion width = 0.36mm
; first layer extrusion width = 0.42mm

M104 S215 ; set temperature
;TYPE:Custom
START_PRINT
M109 S215 ; set temperature and wait for it to be reached
G21 ; set units to millimeters
G90 ; use absolute coordinates
M83 ; use relative distances for extrusion
; Filament gcode
M107
;LAYER_CHANGE
;Z:0.3
;HEIGHT:0.3
G1 E-.6 F3600
G1 Z.3 F9000
G1 X96.602 Y96.602
G1 Z.3
G1 E.6 F2400
M204 S500
;TYPE:Skirt/Brim
;WIDTH:0.42
G1 F1200
G1 X96.817 Y96.388 E.01346
G1 X98.129 Y95.844 E.063
G1 X121.871 Y95.844 E1.05307
G1 X123.183 Y96.388 E.063
G1 X126.112 Y99.317 E.18373
G1 X126.656 Y100.629 E.063
G1 X126.656 Y119.371 E.8313
G1 X126.112 Y120.683 E.063
G1 X123.183 Y123.612 E.18373
G1 X121.871 Y124.156 E.063
G1 X98.129 Y124.156 E1.05307
G1 X96.817 Y123.612 E.063
G1 X93.888 Y120.683 E.18373
G1 X93.344 Y119.371 E.063
G1 X93.344 Y100.629 E.8313
G1 X93.888 Y99.317 E.063
G1 X96.56 Y96.645 E.16761
G1 E-.42 F3600
;WIPE_START
G1 F7200
G1 X96.602 Y96.602 E-.02855
G1 X96.817 Y96.388 E-.14409
G1 X96.831 Y96.382 E-.00736
;WIPE_END
G1 X97.786 Y98.585 F9000
G1 E.6 F2400
G1 F1200
G1 X98.314 Y98.251 E.02771
G1 X99.748 Y97.899 E.06549
G1 X120.276 Y97.903 E.91052
G1 X121.24 Y98.086 E.04352
G1 X122.176 Y98.485 E.04513
G1 X123.45 Y99.55 E.07365
G1 X124.249 Y100.814 E.06633
G1 X124.601 Y102.247 E.06545
G1 X124.601 Y117.73 E.68675
G1 X124.422 Y118.713 E.04432
G1 X124.018 Y119.671 E.04612
G1 X122.95 Y120.95 E.07391
G1 X121.686 Y121.749 E.06633
G1 X120.253 Y122.101 E.06545
G1 X99.77 Y122.101 E.90852
G1 X98.787 Y121.922 E.04432
G1 X97.829 Y121.518 E.04612
G1 X96.55 Y120.45 E.07391
G1 X95.751 Y119.186 E.06633
G1 X95.399 Y117.753 E.06545
G1 X95.399 Y102.27 E.68675
G1 X95.578 Y101.287 E.04432
G1 X95.982 Y100.329 E.04612
G1 X97.05 Y99.05 E.07391
G1 X97.735 Y98.617 E.03594
G1 X97.735 Y98.617 F9000
G1 X97.921 Y98.91
G1 F1200
G1 X98.428 Y98.589 E.02662
G1 X99.77 Y98.255 E.06134
G1 X120.259 Y98.258 E.90879
G1 X121.153 Y98.432 E.0404
G1 X122.011 Y98.801 E.04143
G1 X123.2 Y99.804 E.069
G1 X123.911 Y100.928 E.05899
G1 X124.245 Y102.269 E.0613
G1 X124.245 Y117.713 E.68502
G1 X124.076 Y118.629 E.04131
G1 X123.702 Y119.507 E.04233
G1 X122.696 Y120.7 E.06922
G1 X121.572 Y121.411 E.05899
G1 X120.231 Y121.745 E.0613
G1 X99.787 Y121.745 E.90679
G1 X98.871 Y121.576 E.04131
G1 X97.993 Y121.202 E.04233
G1 X96.8 Y120.196 E.06922
G1 X96.089 Y119.072 E.05899
G1 X95.755 Y117.731 E.0613
G1 X95.755 Y102.287 E.68502
G1 X95.924 Y101.371 E.04131
G1 X96.298 Y100.493 E.04233
G1 X97.304 Y99.3 E.06922
G1 X97.87 Y98.942 E.02971
G1 X97.87 Y98.942 F9000
G1 X98.056 Y99.241
G1 F1200
G1 X98.592 Y98.906 E.02804
G1 X99.791 Y98.61 E.05478
G1 X120.241 Y98.614 E.90706
G1 X121.065 Y98.777 E.03726
G1 X121.844 Y99.116 E.03768
G1 X122.948 Y100.056 E.06431
G1 X123.594 Y101.092 E.05415
G1 X123.89 Y102.291 E.05478
G1 X123.89 Y117.696 E.68329
G1 X123.73 Y118.543 E.03823
G1 X123.386 Y119.341 E.03854
G1 X122.444 Y120.447 E.06444
G1 X121.408 Y121.094 E.05418
G1 X120.209 Y121.39 E.05478
G1 X99.804 Y121.39 E.90506
G1 X98.957 Y121.23 E.03823
G1 X98.159 Y120.886 E.03854
G1 X97.053 Y119.944 E.06444
G1 X96.406 Y118.908 E.05418
G1 X96.11 Y117.709 E.05478
G1 X96.11 Y102.304 E.68329
G1 X96.27 Y101.457 E.03823
G1 X96.614 Y100.659 E.03854
G1 X97.556 Y99.553 E.06444
G1 X98.005 Y99.272 E.02349
G1 X98.005 Y99.272 F9000
G1 X98.189 Y99.571
G1 F1200
G1 X98.754 Y99.224 E.02941
G1 X99.812 Y98.966 E.0483
G1 X120.223 Y98.969 E.90533
G1 X120.975 Y99.121 E.03403
G1 X121.676 Y99.43 E.03398
G1 X122.694 Y100.307 E.0596
G1 X123.276 Y101.254 E.0493
G1 X123.534 Y102.312 E.0483
G1 X123.534 Y117.679 E.6816
G1 X123.385 Y118.456 E.03509
G1 X123.071 Y119.173 E.03472
G1 X122.193 Y120.194 E.05973
G1 X121.246 Y120.776 E.0493
G1 X120.188 Y121.034 E.0483
G1 X99.821 Y121.034 E.90337
G1 X99.044 Y120.885 E.03509
G1 X98.327 Y120.571 E.03472
G1 X97.306 Y119.693 E.05973
G1 X96.724 Y118.746 E.0493
G1 X96.466 Y117.688 E.0483
G1 X96.466 Y102.321 E.6816
G1 X96.615 Y101.544 E.03509
G1 X96.929 Y100.827 E.03472
G1 X97.807 Y99.806 E.05973
G1 X98.138 Y99.603 E.01722
G1 X98.138 Y99.603 F9000
G1 X98.319 Y99.902
G1 F1200
G1 X98.913 Y99.543 E.03078
G1 X99.833 Y99.322 E.04197
G1 X120.204 Y99.325 E.90355
G1 X120.883 Y99.465 E.03075
G1 X121.506 Y99.744 E.03028
G1 X122.439 Y100.556 E.05486
G1 X122.957 Y101.413 E.04442
G1 X123.178 Y102.333 E.04197
G1 X123.178 Y117.663 E.67996
G1 X123.051 Y118.332 E.0302
G1 X122.757 Y119.005 E.03257
G1 X121.944 Y119.939 E.05492
G1 X121.087 Y120.457 E.04442
G1 X120.167 Y120.678 E.04197
G1 X99.837 Y120.678 E.90173
G1 X99.168 Y120.551 E.0302
G1 X98.495 Y120.257 E.03257
G1 X97.561 Y119.444 E.05492
G1 X97.043 Y118.587 E.04442
G1 X96.822 Y117.667 E.04197
G1 X96.822 Y102.337 E.67996
G1 X96.949 Y101.668 E.0302
G1 X97.243 Y100.995 E.03257
G1 X98.056 Y100.061 E.05492
G1 X98.268 Y99.933 E.01098
G1 X98.268 Y99.933 F9000
G1 X98.446 Y100.234
G1 F1200
G1 X99.071 Y99.863 E.03224
G1 X99.853 Y99.677 E.03565
G1 X120.186 Y99.681 E.90187
G1 X120.756 Y99.798 E.02581
G1 X121.335 Y100.057 E.02813
G1 X122.182 Y100.803 E.05006
G1 X122.637 Y101.571 E.03959
G1 X122.823 Y102.353 E.03565
G1 X122.823 Y117.645 E.67827
G1 X122.706 Y118.243 E.02703
G1 X122.443 Y118.835 E.02873
G1 X121.697 Y119.682 E.05006
G1 X120.929 Y120.137 E.03959
G1 X120.147 Y120.323 E.03565
G1 X99.855 Y120.323 E.90005
G1 X99.257 Y120.206 E.02703
G1 X98.665 Y119.943 E.02873
G1 X97.818 Y119.197 E.05006
G1 X97.363 Y118.429 E.03959
G1 X97.177 Y117.647 E.03565
G1 X97.177 Y102.355 E.67827
G1 X97.294 Y101.757 E.02703
G1 X97.557 Y101.165 E.02873
G1 X98.303 Y100.318 E.05006
G1 X98.394 Y100.264 E.00469
G1 X98.394 Y100.264 F9000
G1 X98.569 Y100.565
G1 F1200
G1 X99.225 Y100.184 E.03365
G1 X99.873 Y100.033 E.02951
G1 X120.167 Y100.036 E.90014
G1 X120.662 Y100.141 E.02244
G1 X121.163 Y100.369 E.02441
G1 X121.923 Y101.049 E.04523
G1 X122.316 Y101.725 E.03468
G1 X122.467 Y102.373 E.02951
G1 X122.467 Y117.627 E.67659
G1 X122.362 Y118.152 E.02375
G1 X122.131 Y118.663 E.02487
G1 X121.451 Y119.423 E.04523
G1 X120.775 Y119.816 E.03468
G1 X120.127 Y119.967 E.02951
G1 X99.873 Y119.967 E.89836
G1 X99.348 Y119.862 E.02375
G1 X98.837 Y119.631 E.02487
G1 X98.077 Y118.951 E.04523
G1 X97.684 Y118.275 E.03468
G1 X97.533 Y117.627 E.02951
G1 X97.533 Y102.373 E.67659
G1 X97.638 Y101.848 E.02375
G1 X97.869 Y101.337 E.02487
G1 X98.524 Y100.604 E.0436
G1 X98.524 Y100.604 F9000
G1 X98.787 Y100.843
G1 F1200
G1 X98.792 Y100.838 E.00031
G1 X99.377 Y100.506 E.02983
G1 X99.893 Y100.388 E.02348
G1 X120.147 Y100.392 E.89836
G1 X120.988 Y100.68 E.03943
G1 X121.662 Y101.292 E.04038
G1 X121.994 Y101.877 E.02983
G1 X122.112 Y102.393 E.02348
G1 X122.112 Y117.608 E.67486
G1 X122.018 Y118.059 E.02043
G1 X121.82 Y118.488 E.02096
G1 X121.208 Y119.162 E.04038
G1 X120.623 Y119.494 E.02983
G1 X120.107 Y119.612 E.02348
G1 X99.892 Y119.612 E.89663
G1 X99.441 Y119.518 E.02043
G1 X99.012 Y119.32 E.02096
G1 X98.338 Y118.708 E.04038
G1 X98.006 Y118.123 E.02983
G1 X97.888 Y117.607 E.02348
G1 X97.888 Y102.392 E.67486
G1 X97.982 Y101.941 E.02043
G1 X98.18 Y101.512 E.02096
G1 X98.747 Y100.887 E.03743
G1 X98.747 Y100.887 F9000
G1 X99.008 Y101.128
G1 F1200
G1 X99.032 Y101.102 E.00157
G1 X99.525 Y100.831 E.02495
G1 X99.912 Y100.744 E.01759
G1 X120.126 Y100.748 E.89659
G1 X120.81 Y100.989 E.03217
G1 X121.398 Y101.532 E.0355
G1 X121.669 Y102.025 E.02495
G1 X121.756 Y102.412 E.01759
G1 X121.756 Y117.589 E.67317
G1 X121.511 Y118.31 E.03378
G1 X120.968 Y118.898 E.0355
G1 X120.475 Y119.169 E.02495
G1 X120.088 Y119.256 E.01759
G1 X99.911 Y119.256 E.89495
G1 X99.19 Y119.011 E.03378
G1 X98.602 Y118.468 E.0355
G1 X98.331 Y117.975 E.02495
G1 X98.244 Y117.588 E.01759
G1 X98.244 Y102.411 E.67317
G1 X98.489 Y101.69 E.03378
G1 X98.967 Y101.172 E.03126
G1 X98.967 Y101.172 F9000
G1 X99.225 Y101.415
G1 F1200
G1 X99.269 Y101.368 E.00286
G1 X99.93 Y101.1 E.03164
G1 X120.106 Y101.103 E.8949
G1 X120.632 Y101.298 E.02488
G1 X121.132 Y101.769 E.03047
G1 X121.4 Y102.43 E.03164
G1 X121.4 Y117.57 E.67153
G1 X121.202 Y118.132 E.02643
G1 X120.731 Y118.632 E.03047
G1 X120.07 Y118.9 E.03164
G1 X99.93 Y118.9 E.89331
G1 X99.368 Y118.702 E.02643
G1 X98.868 Y118.231 E.03047
G1 X98.6 Y117.57 E.03164
G1 X98.6 Y102.43 E.67153
G1 X98.798 Y101.868 E.02643
G1 X99.184 Y101.459 E.02494
G1 X99.184 Y101.459 F9000
G1 X99.438 Y101.705
G1 F1200
G1 X99.502 Y101.639 E.00408
G1 X99.948 Y101.455 E.0214
G1 X120.085 Y101.459 E.89317
G1 X120.453 Y101.606 E.01758
G1 X120.861 Y102.002 E.02522
G1 X121.045 Y102.448 E.0214
G1 X121.045 Y117.552 E.66994
G1 X120.894 Y117.953 E.01901
G1 X120.498 Y118.361 E.02522
G1 X120.052 Y118.545 E.0214
G1 X99.948 Y118.545 E.89171
G1 X99.547 Y118.394 E.01901
G1 X99.139 Y117.998 E.02522
G1 X98.955 Y117.552 E.0214
G1 X98.955 Y102.448 E.66994
G1 X99.106 Y102.047 E.01901
G1 X99.396 Y101.748 E.01848
G1 X99.396 Y101.748 F9000
G1 X99.645 Y101.997
G1 F1200
G1 X99.728 Y101.914 E.00521
G1 X99.964 Y101.811 E.01142
G1 X120.036 Y101.811 E.89029
G1 X120.272 Y101.914 E.01142
G1 X120.586 Y102.228 E.0197
G1 X120.689 Y102.464 E.01142
G1 X120.689 Y117.536 E.66852
G1 X120.586 Y117.772 E.01142
G1 X120.272 Y118.086 E.0197
G1 X120.036 Y118.189 E.01142
G1 X99.964 Y118.189 E.89029
G1 X99.728 Y118.086 E.01142
G1 X99.414 Y117.772 E.0197
G1 X99.311 Y117.536 E.01142
G1 X99.311 Y102.464 E.66852
G1 X99.414 Y102.228 E.01142
G1 X99.603 Y102.04 E.01182
G1 X99.603 Y102.04 F9000
G1 X99.876 Y102.28
G1 F1200
G1 X99.952 Y102.194 E.00509
G1 X120.048 Y102.194 E.89135
G1 X120.333 Y102.517 E.01911
G1 X120.333 Y117.483 E.66381
G1 X120.048 Y117.806 E.01911
G1 X100.017 Y117.833 E.88847
G1 X99.694 Y117.548 E.01911
G1 X99.667 Y102.517 E.6667
G1 X99.836 Y102.325 E.01135
G1 X100.08 Y102.569 F9000
G1 F1200
G1 X100.126 Y102.522 E.00292
G1 X119.874 Y102.522 E.87592
G1 X119.978 Y102.626 E.00652
G1 X119.978 Y117.374 E.65414
G1 X119.874 Y117.478 E.00652
G1 X100.126 Y117.478 E.87592
G1 X100.022 Y117.374 E.00652
G1 X100.022 Y102.626 E.65414
G1 X100.037 Y102.611 E.00094
G1 E-.42 F3600
;WIPE_START
G1 F7200
G1 X100.08 Y102.569 E-.02855
G1 X100.126 Y102.522 E-.03124
G1 X100.379 Y102.522 E-.12021
;WIPE_END
G1 X118.879 Y116.379 F9000
G1 E.6 F2400
;TYPE:Perimeter
;WIDTH:0.42
G1 F1200
G1 X101.121 Y116.379 E.78765
G1 X101.121 Y103.621 E.56588
G1 X118.879 Y103.621 E.78765
G1 X118.879 Y110 E.28294
G1 X118.879 Y116.319 E.28028
G1 X118.879 Y116.319 F9000
G1 X119.234 Y116.734
G1 F1200
G1 X100.766 Y116.734 E.81914
G1 X100.766 Y103.266 E.59737
G1 X119.234 Y103.266 E.81914
G1 X119.234 Y110 E.29868
G1 X119.234 Y116.674 E.29602
G1 X119.234 Y116.674 F9000
G1 X119.59 Y117.09
;TYPE:External perimeter
G1 F1200
G1 X100.41 Y117.09 E.85072
G1 X100.41 Y102.91 E.62895
G1 X119.59 Y102.91 E.85072
G1 X119.59 Y110 E.31448
G1 X119.59 Y117.03 E.31181
G1 E-.42 F3600
;WIPE_START
G1 F7200
G1 X119.59 Y117.09 E-.0285
G1 X119.271 Y117.09 E-.1515
;WIPE_END
G1 X118.765 Y104.466 F9000
G1 E.6 F2400
;TYPE:Solid infill
;WIDTH:0.425496
G1 F1200
G1 X118.194 Y103.895 E.03637
G1 X117.684 Y103.895 E.02297
G1 X118.605 Y104.816 E.05866
G1 X118.605 Y105.327 E.02302
G1 X117.173 Y103.895 E.09121
G1 X116.662 Y103.895 E.02302
G1 X118.605 Y105.838 E.12376
G1 X118.605 Y106.348 E.02297
G1 X116.152 Y103.895 E.15625
G1 X115.641 Y103.895 E.02302
G1 X118.605 Y106.859 E.1888
G1 X118.605 Y107.37 E.02302
G1 X115.13 Y103.895 E.22135
G1 X114.62 Y103.895 E.02297
G1 X118.605 Y107.88 E.25383
G1 X118.605 Y108.391 E.02302
G1 X114.109 Y103.895 E.28638
G1 X113.598 Y103.895 E.02302
G1 X118.605 Y108.902 E.31893
G1 X118.605 Y109.412 E.02297
G1 X113.088 Y103.895 E.35141
G1 X112.577 Y103.895 E.02302
G1 X118.605 Y109.923 E.38396
G1 X118.605 Y110.434 E.02302
G1 X112.066 Y103.895 E.41651
G1 X111.555 Y103.895 E.02302
G1 X118.605 Y110.945 E.44906
G1 X118.605 Y111.455 E.02297
G1 X111.045 Y103.895 E.48155
G1 X110.534 Y103.895 E.02302
G1 X118.605 Y111.966 E.51409
G1 X118.605 Y112.477 E.02302
G1 X110.023 Y103.895 E.54664
G1 X109.513 Y103.895 E.02297
G1 X118.605 Y112.987 E.57913
G1 X118.605 Y113.498 E.02302
G1 X109.002 Y103.895 E.61168
G1 X108.491 Y103.895 E.02302
G1 X118.605 Y114.009 E.64423
G1 X118.605 Y114.519 E.02297
G1 X107.981 Y103.895 E.67671
G1 X107.47 Y103.895 E.02302
G1 X118.605 Y115.03 E.70926
G1 X118.605 Y115.541 E.02302
G1 X106.959 Y103.895 E.74181
G1 X106.448 Y103.895 E.02302
G1 X118.605 Y116.052 E.77436
G1 X118.605 Y116.105 E.00239
G1 X118.148 Y116.105 E.02058
G1 X105.938 Y103.895 E.77773
G1 X105.427 Y103.895 E.02302
G1 X117.637 Y116.105 E.77773
G1 X117.126 Y116.105 E.02302
G1 X104.916 Y103.895 E.77773
G1 X104.406 Y103.895 E.02297
G1 X116.616 Y116.105 E.77773
G1 X116.105 Y116.105 E.02302
G1 X103.895 Y103.895 E.77773
G1 X103.384 Y103.895 E.02302
G1 X115.594 Y116.105 E.77773
G1 X115.084 Y116.105 E.02297
G1 X102.874 Y103.895 E.77773
G1 X102.363 Y103.895 E.02302
G1 X114.573 Y116.105 E.77773
G1 X114.062 Y116.105 E.02302
G1 X101.852 Y103.895 E.77773
G1 X101.395 Y103.895 E.02058
G1 X101.395 Y103.949 E.00243
G1 X113.551 Y116.105 E.7743
G1 X113.041 Y116.105 E.02297
G1 X101.395 Y104.459 E.74181
G1 X101.395 Y104.97 E.02302
G1 X112.53 Y116.105 E.70926
G1 X112.019 Y116.105 E.02302
G1 X101.395 Y105.481 E.67671
G1 X101.395 Y105.991 E.02297
G1 X111.509 Y116.105 E.64423
G1 X110.998 Y116.105 E.02302
G1 X101.395 Y106.502 E.61168
G1 X101.395 Y107.013 E.02302
G1 X110.487 Y116.105 E.57913
G1 X109.977 Y116.105 E.02297
G1 X101.395 Y107.523 E.54664
G1 X101.395 Y108.034 E.02302
G1 X109.466 Y116.105 E.51409
G1 X108.955 Y116.105 E.02302
G1 X101.395 Y108.545 E.48155
G1 X101.395 Y109.056 E.02302
G1 X108.444 Y116.105 E.449
G1 X107.934 Y116.105 E.02297
G1 X101.395 Y109.566 E.41651
G1 X101.395 Y110.077 E.02302
G1 X107.423 Y116.105 E.38396
G1 X106.912 Y116.105 E.02302
G1 X101.395 Y110.588 E.35141
G1 X101.395 Y111.098 E.02297
G1 X106.402 Y116.105 E.31893
G1 X105.891 Y116.105 E.02302
G1 X101.395 Y111.609 E.28638
G1 X101.395 Y112.12 E.02302
G1 X105.38 Y116.105 E.25383
G1 X104.87 Y116.105 E.02297
G1 X101.395 Y112.63 E.22135
G1 X101.395 Y113.141 E.02302
G1 X104.359 Y116.105 E.1888
G1 X103.848 Y116.105 E.02302
G1 X101.395 Y113.652 E.15625
G1 X101.395 Y114.162 E.02297
G1 X103.338 Y116.105 E.12376
G1 X102.827 Y116.105 E.02302
G1 X101.395 Y114.673 E.09121
G1 X101.395 Y115.184 E.02302
G1 X102.316 Y116.105 E.05866
G1 X101.805 Y116.105 E.02302
G1 X101.235 Y115.535 E.03631
;LAYER_CHANGE
;Z:0.6
;HEIGHT:0.3
;BEFORE_LAYER_CHANGE
G92 E0
;0.6


G1 E-.42 F3600
;WIPE_START
G1 F7200
G1 X101.503 Y115.803 E-.18
;WIPE_END
G1 Z.6 F9000
;AFTER_LAYER_CHANGE
;0.6
G1 Z.6
G1 X93.344 Y115.803
G1 E.6 F2400
;TYPE:Skirt/Brim
;WIDTH:0.42
G1 X93.344 Y100.629 E.67304
G1 X93.888 Y99.317 E.063
G1 X96.817 Y96.388 E.18373
G1 X98.129 Y95.844 E.063
G1 X121.871 Y95.844 E1.05307
G1 X123.183 Y96.388 E.063
G1 X126.112 Y99.317 E.18373
G1 X126.656 Y100.629 E.063
G1 X126.656 Y119.371 E.8313
G1 X126.112 Y120.683 E.063
G1 X123.183 Y123.612 E.18373
G1 X121.871 Y124.156 E.063
G1 X98.129 Y124.156 E1.05307
G1 X96.817 Y123.612 E.063
G1 X93.888 Y120.683 E.18373
G1 X93.344 Y119.371 E.063
G1 X93.344 Y115.863 E.1556
G1 E-.42 F3600
;WIPE_START
G1 F7200
G1 X93.344 Y115.803 E-.0285
G1 X93.344 Y115.484 E-.1515
;WIPE_END
G1 X119.049 Y116.549 F9000
G1 E.6 F2400
;TYPE:Perimeter
;WIDTH:0.44
G1 X100.951 Y116.549 E.84788
G1 X100.951 Y103.451 E.61363
G1 X119.049 Y103.451 E.84788
G1 X119.049 Y110 E.30682
G1 X119.049 Y116.489 E.304
G1 X119.049 Y116.489 F9000
G1 X119.424 Y116.924
G1 F2400
G1 X100.576 Y116.924 E.88302
G1 X100.576 Y103.076 E.64877
G1 X119.424 Y103.076 E.88302
G1 X119.424 Y110 E.32438
G1 X119.424 Y116.864 E.32157
G1 X119.424 Y116.864 F9000
G1 X119.79 Y117.29
;TYPE:External perimeter
;WIDTH:0.42
G1 F1500
G1 X100.21 Y117.29 E.86847
G1 X100.21 Y102.71 E.64669
G1 X119.79 Y102.71 E.86847
G1 X119.79 Y110 E.32335
G1 X119.79 Y117.23 E.32068
G1 E-.42 F3600
;WIPE_START
G1 F7200
G1 X119.79 Y117.29 E-.0285
G1 X119.471 Y117.29 E-.1515
;WIPE_END
G1 X101.342 Y103.771 F9000
G1 E.6 F2400
;TYPE:Solid infill
